; generated by PrusaSlicer 2.4.0+win64 on 2022-03-18 at 16:31:43 UTC

; 

; external perimeters extrusion width = 0.45mm
; perimeters extrusion width = 0.45mm
; infill extrusion width = 0.45mm
; solid infill extrusion width = 0.45mm
; top infill extrusion width = 0.40mm
; first layer extrusion width = 0.40mm

; external perimeters extrusion width = 0.45mm
; perimeters extrusion width = 0.45mm
; infill extrusion width = 0.45mm
; solid infill extrusion width = 0.45mm
; top infill extrusion width = 0.40mm
; first layer extrusion width = 0.40mm

; external perimeters extrusion width = 0.45mm
; perimeters extrusion width = 0.45mm
; infill extrusion width = 0.45mm
; solid infill extrusion width = 0.45mm
; top infill extrusion width = 0.40mm
; first layer extrusion width = 0.40mm

M73 P0 R79
M201 X500 Y500 Z100 E5000 ; sets maximum accelerations, mm/sec^2
M203 X500 Y500 Z10 E60 ; sets maximum feedrates, mm/sec
M204 P500 R1000 T500 ; sets acceleration (P, T) and retract acceleration (R), mm/sec^2
M205 X8.00 Y8.00 Z0.40 E5.00 ; sets the jerk limits, mm/sec
M205 S0 T0 ; sets the minimum extruding and travel feed rate, mm/sec
M107
;TYPE:Custom
G90 ; use absolute coordinates
M83 ; extruder relative mode
M104 S210 ; set extruder temp
M140 S60 ; set bed temp
M190 S60 ; wait for bed temp
M109 S210 ; wait for extruder temp
G28 ; home all
G92 E0.0 ; set position home
G1 Z0.28 F240
G1 X5 F5000 ; move purge line in a little
G1 Y190 E15.0 F1500.0 ; purge up
G1 X7.3 F5000 ; move purge over
G1 Y15 E30 F1200.0 ; purge down
G92 E0.0 ; set home after purge line
G21 ; set units to millimeters
G90 ; use absolute coordinates
M83 ; use relative distances for extrusion
; Filament gcode
M107
;LAYER_CHANGE
;Z:0.2
;HEIGHT:0.2
;BEFORE_LAYER_CHANGE
;0.2


G1 E-2 F1620
M73 P0 R78
G1 Z.5 F7800
;AFTER_LAYER_CHANGE
;0.2
G1 X117.631 Y89.433
G1 Z.2
G1 E2 F2400
;TYPE:Skirt/Brim
;WIDTH:0.4
G1 F1800
G1 X117.78 Y89.237 E.00729
G1 X118.491 Y88.524 E.02991
G1 X119.601 Y87.679 E.04143
G1 X121.195 Y86.867 E.0531
G1 X122.521 Y86.468 E.04113
G1 X123.506 Y86.31 E.02962
G1 X124.416 Y86.257 E.02706
G1 X154.835 Y86.277 E.90317
G1 X156.217 Y86.464 E.04143
G1 X157.922 Y87.018 E.05321
G1 X159.147 Y87.677 E.04131
G1 X159.947 Y88.257 E.02933
G1 X160.755 Y88.995 E.03251
G1 X245.139 Y178.41 E3.6504
G1 X246.368 Y180.29 E.06669
G1 X246.872 Y182.773 E.07523
G1 X246.872 Y194.582 E.35064
G1 X246.476 Y196.793 E.06669
G1 X245.335 Y198.728 E.06669
G1 X243.592 Y200.145 E.06669
G1 X240.515 Y200.939 E.09434
G1 X156.69 Y200.898 E2.48888
G1 X94.311 Y193.711 E1.86438
G1 X93.186 Y193.489 E.03404
G1 X92.281 Y193.199 E.02821
G1 X90.961 Y192.571 E.04342
G1 X89.814 Y191.776 E.04142
G1 X88.592 Y190.562 E.05115
G1 X87.789 Y189.421 E.04141
G1 X87.328 Y188.534 E.0297
G1 X81.147 Y173.233 E.48998
G1 X80.757 Y171.903 E.04113
G1 X80.562 Y170.473 E.04285
G1 X80.593 Y168.983 E.04427
G1 X80.844 Y167.588 E.04208
G1 X81.141 Y166.646 E.02931
G1 X87.451 Y151.042 E.49975
G1 X116.432 Y91.229 E1.9734
G1 X116.939 Y90.343 E.03031
G1 X117.595 Y89.481 E.03218
G1 E-1.4 F1620
;WIPE_START
G1 F6240
G1 X117.78 Y89.237 E-.07535
G1 X118.491 Y88.524 E-.24846
G1 X119.286 Y87.92 E-.24619
;WIPE_END
G1 E-.03 F1620
G1 Z.7 F7800
G1 X158.532 Y192.169
G1 Z.2
G1 E2 F2400
;TYPE:Perimeter
G1 F1800
G1 X184.411 Y192.169 E.76838
G1 X185.011 Y192.122 E.01788
G1 X185.64 Y191.971 E.01919
G1 X186.237 Y191.724 E.01918
G1 X186.788 Y191.386 E.01918
G1 X187.279 Y190.967 E.01918
G1 X187.698 Y190.475 E.01918
G1 X188.036 Y189.924 E.01918
G1 X188.283 Y189.327 E.01918
G1 X188.434 Y188.699 E.01918
G1 X188.481 Y188.099 E.01788
G1 X188.481 Y181.265 E.20289
G1 X188.67 Y181.243 E.00565
G1 X188.963 Y182.462 E.03724
G1 X189.412 Y183.545 E.03479
G1 X190.024 Y184.544 E.03479
G1 X190.785 Y185.435 E.03479
G1 X191.676 Y186.196 E.03479
G1 X192.675 Y186.809 E.03479
G1 X193.758 Y187.257 E.03479
G1 X194.897 Y187.531 E.03479
G1 X196.022 Y187.619 E.03349
G1 X233.105 Y187.619 E1.10105
G1 X233.105 Y183.887 E.11081
G1 X239.401 Y183.887 E.18695
G1 X239.401 Y193.468 E.28448
G1 X158.532 Y193.468 E2.40111
G1 X158.532 Y192.229 E.03679
G1 E-1.4 F1620
;WIPE_START
G1 F6240
G1 X160.843 Y192.224 E-.57
;WIPE_END
G1 E-.03 F1620
G1 Z.7 F7800
G1 X186.147 Y145.697
G1 Z.2
G1 E2 F2400
G1 F1800
G1 X188.601 Y145.697 E.07287
G1 X188.601 Y146.941 E.03694
G1 X185.347 Y146.941 E.09662
G1 X185.347 Y145.697 E.03694
G1 X186.087 Y145.697 E.02197
G1 X185.39 Y145.339 F7800
G1 F1800
G1 X188.958 Y145.339 E.10595
G1 X188.958 Y180.185 E1.0346
G1 X189.043 Y181.267 E.03224
G1 X189.304 Y182.352 E.03312
G1 X189.731 Y183.382 E.03312
G1 X190.314 Y184.334 E.03312
G1 X191.038 Y185.182 E.03312
G1 X191.887 Y185.907 E.03312
G1 X192.838 Y186.489 E.03312
G1 X193.868 Y186.916 E.03312
G1 X194.953 Y187.177 E.03312
G1 X196.036 Y187.262 E.03224
G1 X232.748 Y187.262 E1.09003
G1 X232.748 Y183.53 E.11081
G1 X239.758 Y183.53 E.20815
G1 X239.758 Y193.825 E.30568
G1 X158.175 Y193.825 E2.42232
G1 X158.175 Y191.812 E.05978
M73 P1 R78
G1 X184.397 Y191.812 E.77857
G1 X184.955 Y191.768 E.01663
G1 X185.529 Y191.63 E.01752
G1 X186.074 Y191.405 E.01752
G1 X186.577 Y191.096 E.01752
G1 X187.026 Y190.713 E.01752
G1 X187.409 Y190.265 E.01752
G1 X187.717 Y189.762 E.01752
G1 X187.943 Y189.217 E.01752
G1 X188.08 Y188.643 E.01752
G1 X188.124 Y188.085 E.01663
G1 X188.124 Y147.298 E1.21101
G1 X184.99 Y147.298 E.09306
G1 X184.99 Y145.339 E.05815
G1 X185.33 Y145.339 E.0101
G1 X184.633 Y144.982 F7800
;TYPE:External perimeter
G1 F1800
G1 X189.315 Y144.982 E.13903
G1 X189.315 Y180.171 E1.04478
G1 X189.397 Y181.211 E.03099
G1 X189.645 Y182.241 E.03145
G1 X190.05 Y183.22 E.03145
G1 X190.604 Y184.123 E.03145
G1 X191.292 Y184.929 E.03146
G1 X192.097 Y185.617 E.03145
G1 X193 Y186.17 E.03145
G1 X193.979 Y186.576 E.03146
G1 X195.009 Y186.823 E.03145
G1 X196.05 Y186.905 E.03099
G1 X232.391 Y186.905 E1.07901
G1 X232.391 Y183.173 E.11081
G1 X240.115 Y183.173 E.22936
G1 X240.115 Y194.182 E.32689
G1 X157.818 Y194.182 E2.44352
G1 X157.818 Y191.455 E.08098
G1 X184.383 Y191.455 E.78875
G1 X184.899 Y191.414 E.01538
G1 X185.418 Y191.29 E.01585
G1 X185.911 Y191.085 E.01585
G1 X186.366 Y190.807 E.01585
G1 X186.772 Y190.46 E.01585
G1 X187.119 Y190.054 E.01585
G1 X187.398 Y189.599 E.01585
G1 X187.602 Y189.106 E.01585
G1 X187.727 Y188.587 E.01585
G1 X187.767 Y188.071 E.01538
G1 X187.767 Y147.655 E1.2
G1 X184.633 Y147.655 E.09306
G1 X184.633 Y145.042 E.07757
G1 X185.022 Y145.076 F7800
G1 E-1.4 F1620
;WIPE_START
G1 F6240
G1 X186.944 Y145.013 E-.57
;WIPE_END
G1 E-.03 F1620
G1 Z.7 F7800
G1 X187.753 Y145.804
G1 Z.2
G1 E2 F2400
;TYPE:Solid infill
;WIDTH:0.408974
G1 F1800
G1 X188.333 Y146.384 E.02497
G1 X188.333 Y146.673 E.0088
G1 X188.105 Y146.673 E.00696
G1 X187.396 Y145.964 E.03051
G1 X186.879 Y145.964 E.01576
G1 X187.587 Y146.673 E.03051
G1 X187.07 Y146.673 E.01576
G1 X186.361 Y145.964 E.03051
G1 X185.843 Y145.964 E.01576
G1 X186.552 Y146.673 E.03051
G1 X186.034 Y146.673 E.01576
G1 X185.454 Y146.093 E.02497
G1 E-1.4 F1620
;WIPE_START
G1 F6240
G1 X186.034 Y146.673 E-.20232
G1 X186.552 Y146.673 E-.12768
G1 X185.864 Y145.985 E-.24
;WIPE_END
G1 E-.03 F1620
G1 Z.7 F7800
G1 X188.541 Y147.119
G1 Z.2
G1 E2 F2400
;TYPE:Gap fill
;WIDTH:0.519804
G1 F1800
G1 X188.541 Y180.192 E1.31142
;WIDTH:0.52054
G1 X188.542 Y180.21 E.00074
;WIDTH:0.567766
G1 X188.576 Y181.074 E.03773
G1 X188.681 Y182.143 F7800
;WIDTH:0.13435
G1 F1800
G1 X188.704 Y182.338 E.0015
;WIDTH:0.17778
G1 X188.727 Y182.534 E.00221
;WIDTH:0.18118
G1 X188.729 Y182.544 E.00012
;WIDTH:0.230486
G1 X188.761 Y182.706 E.00257
;WIDTH:0.279792
G1 X188.793 Y182.868 E.00325
;WIDTH:0.329099
G1 X188.826 Y183.029 E.00392
;WIDTH:0.378406
G1 X188.858 Y183.191 E.0046
;WIDTH:0.427712
G1 X188.89 Y183.353 E.00527
G1 E-1.4 F1620
;WIPE_START
G1 F6240
G1 X188.858 Y183.191 E-.04066
;WIPE_END
G1 E-.55934 F1620
G1 Z.7 F7800
G1 X238.571 Y183.994
G1 Z.2
G1 E2 F2400
;TYPE:Solid infill
;WIDTH:0.400817
G1 F1800
G1 X239.133 Y184.557 E.02369
G1 X239.133 Y185.063 E.01506
G1 X238.225 Y184.155 E.03823
G1 X237.719 Y184.155 E.01506
G1 X239.133 Y185.569 E.05953
G1 X239.133 Y186.075 E.01506
G1 X237.213 Y184.155 E.08083
G1 X236.707 Y184.155 E.01506
G1 X239.133 Y186.582 E.10213
G1 X239.133 Y187.088 E.01506
G1 X236.201 Y184.155 E.12343
G1 X235.694 Y184.155 E.01506
G1 X239.133 Y187.594 E.14474
G1 X239.133 Y188.1 E.01506
G1 X235.188 Y184.155 E.16604
G1 X234.682 Y184.155 E.01506
G1 X239.133 Y188.606 E.18734
G1 X239.133 Y189.112 E.01506
G1 X234.176 Y184.155 E.20864
G1 X233.67 Y184.155 E.01506
G1 X239.133 Y189.618 E.22994
G1 X239.133 Y190.125 E.01506
G1 X233.373 Y184.364 E.24245
G1 X233.373 Y184.87 E.01506
G1 X239.133 Y190.631 E.24245
G1 X239.133 Y191.137 E.01506
G1 X233.373 Y185.376 E.24245
G1 X233.373 Y185.882 E.01506
G1 X239.133 Y191.643 E.24245
G1 X239.133 Y192.149 E.01506
G1 X233.373 Y186.388 E.24245
G1 X233.373 Y186.895 E.01506
G1 X239.133 Y192.655 E.24245
G1 X239.133 Y193.161 E.01506
G1 X233.373 Y187.401 E.24245
G1 X233.373 Y187.887 E.01447
G1 X233.353 Y187.887 E.00059
G1 X238.666 Y193.2 E.22363
G1 X238.16 Y193.2 E.01506
G1 X232.847 Y187.887 E.22363
G1 X232.34 Y187.887 E.01506
G1 X237.654 Y193.2 E.22363
G1 X237.148 Y193.2 E.01506
G1 X231.834 Y187.887 E.22363
G1 X231.328 Y187.887 E.01506
G1 X236.642 Y193.2 E.22363
G1 X236.136 Y193.2 E.01506
G1 X230.822 Y187.887 E.22363
G1 X230.316 Y187.887 E.01506
G1 X235.629 Y193.2 E.22363
G1 X235.123 Y193.2 E.01506
G1 X229.81 Y187.887 E.22363
G1 X229.304 Y187.887 E.01506
G1 X234.617 Y193.2 E.22363
G1 X234.111 Y193.2 E.01506
G1 X228.797 Y187.887 E.22363
G1 X228.291 Y187.887 E.01506
G1 X233.605 Y193.2 E.22363
G1 X233.099 Y193.2 E.01506
G1 X227.785 Y187.887 E.22363
G1 X227.279 Y187.887 E.01506
G1 X232.593 Y193.2 E.22363
G1 X232.086 Y193.2 E.01506
G1 X226.773 Y187.887 E.22363
G1 X226.267 Y187.887 E.01506
G1 X231.58 Y193.2 E.22363
G1 X231.074 Y193.2 E.01506
M73 P1 R77
G1 X225.761 Y187.887 E.22363
G1 X225.254 Y187.887 E.01506
G1 X230.568 Y193.2 E.22363
G1 X230.062 Y193.2 E.01506
G1 X224.748 Y187.887 E.22363
G1 X224.242 Y187.887 E.01506
G1 X229.556 Y193.2 E.22363
G1 X229.05 Y193.2 E.01506
G1 X223.736 Y187.887 E.22363
G1 X223.23 Y187.887 E.01506
G1 X228.543 Y193.2 E.22363
G1 X228.037 Y193.2 E.01506
G1 X222.724 Y187.887 E.22363
G1 X222.218 Y187.887 E.01506
G1 X227.531 Y193.2 E.22363
G1 X227.025 Y193.2 E.01506
G1 X221.711 Y187.887 E.22363
G1 X221.205 Y187.887 E.01506
G1 X226.519 Y193.2 E.22363
G1 X226.013 Y193.2 E.01506
G1 X220.699 Y187.887 E.22363
G1 X220.193 Y187.887 E.01506
G1 X225.507 Y193.2 E.22363
G1 X225 Y193.2 E.01506
G1 X219.687 Y187.887 E.22363
G1 X219.181 Y187.887 E.01506
G1 X224.494 Y193.2 E.22363
G1 X223.988 Y193.2 E.01506
G1 X218.675 Y187.887 E.22363
G1 X218.168 Y187.887 E.01506
G1 X223.482 Y193.2 E.22363
G1 X222.976 Y193.2 E.01506
G1 X217.662 Y187.887 E.22363
G1 X217.156 Y187.887 E.01506
G1 X222.47 Y193.2 E.22363
G1 X221.964 Y193.2 E.01506
G1 X216.65 Y187.887 E.22363
G1 X216.144 Y187.887 E.01506
G1 X221.457 Y193.2 E.22363
G1 X220.951 Y193.2 E.01506
G1 X215.638 Y187.887 E.22363
G1 X215.132 Y187.887 E.01506
G1 X220.445 Y193.2 E.22363
G1 X219.939 Y193.2 E.01506
G1 X214.625 Y187.887 E.22363
G1 X214.119 Y187.887 E.01506
G1 X219.433 Y193.2 E.22363
G1 X218.927 Y193.2 E.01506
G1 X213.613 Y187.887 E.22363
G1 X213.107 Y187.887 E.01506
G1 X218.421 Y193.2 E.22363
G1 X217.914 Y193.2 E.01506
G1 X212.601 Y187.887 E.22363
G1 X212.095 Y187.887 E.01506
G1 X217.408 Y193.2 E.22363
G1 X216.902 Y193.2 E.01506
G1 X211.589 Y187.887 E.22363
G1 X211.082 Y187.887 E.01506
G1 X216.396 Y193.2 E.22363
G1 X215.89 Y193.2 E.01506
G1 X210.576 Y187.887 E.22363
G1 X210.07 Y187.887 E.01506
G1 X215.384 Y193.2 E.22363
G1 X214.878 Y193.2 E.01506
G1 X209.564 Y187.887 E.22363
G1 X209.058 Y187.887 E.01506
G1 X214.371 Y193.2 E.22363
G1 X213.865 Y193.2 E.01506
G1 X208.552 Y187.887 E.22363
G1 X208.046 Y187.887 E.01506
G1 X213.359 Y193.2 E.22363
G1 X212.853 Y193.2 E.01506
G1 X207.539 Y187.887 E.22363
G1 X207.033 Y187.887 E.01506
G1 X212.347 Y193.2 E.22363
G1 X211.841 Y193.2 E.01506
G1 X206.527 Y187.887 E.22363
G1 X206.021 Y187.887 E.01506
G1 X211.335 Y193.2 E.22363
G1 X210.828 Y193.2 E.01506
G1 X205.515 Y187.887 E.22363
G1 X205.009 Y187.887 E.01506
G1 X210.322 Y193.2 E.22363
G1 X209.816 Y193.2 E.01506
G1 X204.503 Y187.887 E.22363
G1 X203.996 Y187.887 E.01506
G1 X209.31 Y193.2 E.22363
G1 X208.804 Y193.2 E.01506
G1 X203.49 Y187.887 E.22363
G1 X202.984 Y187.887 E.01506
G1 X208.298 Y193.2 E.22363
G1 X207.792 Y193.2 E.01506
G1 X202.478 Y187.887 E.22363
G1 X201.972 Y187.887 E.01506
G1 X207.285 Y193.2 E.22363
G1 X206.779 Y193.2 E.01506
G1 X201.466 Y187.887 E.22363
G1 X200.96 Y187.887 E.01506
G1 X206.273 Y193.2 E.22363
G1 X205.767 Y193.2 E.01506
G1 X200.453 Y187.887 E.22363
G1 X199.947 Y187.887 E.01506
G1 X205.261 Y193.2 E.22363
G1 X204.755 Y193.2 E.01506
G1 X199.441 Y187.887 E.22363
G1 X198.935 Y187.887 E.01506
G1 X204.249 Y193.2 E.22363
G1 X203.742 Y193.2 E.01506
G1 X198.429 Y187.887 E.22363
G1 X197.923 Y187.887 E.01506
G1 X203.236 Y193.2 E.22363
G1 X202.73 Y193.2 E.01506
G1 X197.417 Y187.887 E.22363
G1 X196.91 Y187.887 E.01506
G1 X202.224 Y193.2 E.22363
G1 X201.718 Y193.2 E.01506
G1 X196.404 Y187.887 E.22363
G1 X195.888 Y187.877 E.01535
G1 X201.212 Y193.2 E.22403
G1 X200.706 Y193.2 E.01506
G1 X195.339 Y187.834 E.22585
G1 X194.776 Y187.777 E.01685
G1 X200.199 Y193.2 E.22826
G1 X199.693 Y193.2 E.01506
G1 X194.11 Y187.617 E.23499
M73 P2 R77
G1 X193.675 Y187.512 E.01331
G1 X193.375 Y187.388 E.00966
G1 X199.187 Y193.2 E.24461
G1 X198.681 Y193.2 E.01506
G1 X192.003 Y186.522 E.28107
G1 E-1.4 F1620
;WIPE_START
G1 F6240
G1 X193.637 Y188.156 E-.57
;WIPE_END
G1 E-.03 F1620
G1 Z.7 F7800
G1 X189.698 Y184.218
G1 Z.2
G1 E2 F2400
G1 F1800
G1 X189.07 Y183.59 E.02642
G1 X188.749 Y183.654 E.00975
G1 X188.749 Y183.775 E.0036
G1 X198.175 Y193.2 E.39669
G1 X197.669 Y193.2 E.01506
G1 X188.749 Y184.281 E.37539
G1 X188.749 Y184.787 E.01506
G1 X197.163 Y193.2 E.35408
G1 X196.656 Y193.2 E.01506
G1 X188.749 Y185.293 E.33278
G1 X188.749 Y185.799 E.01506
G1 X196.15 Y193.2 E.31148
G1 X195.644 Y193.2 E.01506
G1 X188.749 Y186.305 E.29018
G1 X188.749 Y186.812 E.01506
G1 X195.138 Y193.2 E.26888
G1 X194.632 Y193.2 E.01506
G1 X188.749 Y187.318 E.24758
G1 X188.749 Y187.824 E.01506
G1 X194.126 Y193.2 E.22628
G1 X193.62 Y193.2 E.01506
G1 X188.733 Y188.314 E.20565
G1 X188.691 Y188.778 E.01386
G1 X193.113 Y193.2 E.18613
G1 X192.607 Y193.2 E.01506
G1 X188.593 Y189.186 E.16896
G1 X188.539 Y189.41 E.00687
G1 X188.472 Y189.571 E.00519
G1 X192.101 Y193.2 E.15273
G1 X191.595 Y193.2 E.01506
G1 X188.324 Y189.929 E.13767
G1 X188.275 Y190.046 E.00377
G1 X188.146 Y190.258 E.00737
G1 X191.089 Y193.2 E.12386
G1 X190.583 Y193.2 E.01506
G1 X187.954 Y190.571 E.11065
G1 X187.729 Y190.852 E.01072
G1 X190.077 Y193.2 E.09882
G1 X189.57 Y193.2 E.01506
G1 X187.495 Y191.125 E.08733
G1 X187.227 Y191.363 E.01067
G1 X189.064 Y193.2 E.07733
G1 X188.558 Y193.2 E.01506
G1 X186.954 Y191.596 E.06751
G1 X186.641 Y191.79 E.01094
G1 X188.052 Y193.2 E.05937
G1 X187.546 Y193.2 E.01506
G1 X186.323 Y191.978 E.05146
G1 X185.965 Y192.126 E.01153
G1 X187.04 Y193.2 E.04522
G1 X186.534 Y193.2 E.01506
G1 X185.591 Y192.258 E.03966
G1 X185.183 Y192.356 E.01249
G1 X186.027 Y193.2 E.03554
G1 X185.521 Y193.2 E.01506
G1 X184.733 Y192.412 E.03317
G1 X184.252 Y192.437 E.01435
G1 X185.015 Y193.2 E.03213
G1 X184.509 Y193.2 E.01506
G1 X183.745 Y192.437 E.03213
G1 X183.239 Y192.437 E.01506
G1 X184.003 Y193.2 E.03213
G1 X183.497 Y193.2 E.01506
G1 X182.733 Y192.437 E.03213
G1 X182.227 Y192.437 E.01506
G1 X182.991 Y193.2 E.03213
G1 X182.484 Y193.2 E.01506
G1 X181.721 Y192.437 E.03213
G1 X181.215 Y192.437 E.01506
G1 X181.978 Y193.2 E.03213
G1 X181.472 Y193.2 E.01506
G1 X180.709 Y192.437 E.03213
G1 X180.202 Y192.437 E.01506
G1 X180.966 Y193.2 E.03213
G1 X180.46 Y193.2 E.01506
G1 X179.696 Y192.437 E.03213
G1 X179.19 Y192.437 E.01506
G1 X179.954 Y193.2 E.03213
G1 X179.448 Y193.2 E.01506
G1 X178.684 Y192.437 E.03213
G1 X178.178 Y192.437 E.01506
G1 X178.941 Y193.2 E.03213
G1 X178.435 Y193.2 E.01506
G1 X177.672 Y192.437 E.03213
G1 X177.166 Y192.437 E.01506
G1 X177.929 Y193.2 E.03213
G1 X177.423 Y193.2 E.01506
G1 X176.659 Y192.437 E.03213
