; generated by PrusaSlicer 2.4.0+win64 on 2022-03-18 at 16:03:20 UTC

; 

; external perimeters extrusion width = 0.45mm
; perimeters extrusion width = 0.45mm
; infill extrusion width = 0.45mm
; solid infill extrusion width = 0.45mm
; top infill extrusion width = 0.40mm
; first layer extrusion width = 0.40mm

; external perimeters extrusion width = 0.45mm
; perimeters extrusion width = 0.45mm
; infill extrusion width = 0.45mm
; solid infill extrusion width = 0.45mm
; top infill extrusion width = 0.40mm
; first layer extrusion width = 0.40mm

; external perimeters extrusion width = 0.45mm
; perimeters extrusion width = 0.45mm
; infill extrusion width = 0.45mm
; solid infill extrusion width = 0.45mm
; top infill extrusion width = 0.40mm
; first layer extrusion width = 0.40mm

M73 P0 R73
M201 X500 Y500 Z100 E5000 ; sets maximum accelerations, mm/sec^2
M203 X500 Y500 Z10 E60 ; sets maximum feedrates, mm/sec
M204 P500 R1000 T500 ; sets acceleration (P, T) and retract acceleration (R), mm/sec^2
M205 X8.00 Y8.00 Z0.40 E5.00 ; sets the jerk limits, mm/sec
M205 S0 T0 ; sets the minimum extruding and travel feed rate, mm/sec
M107
;TYPE:Custom
G90 ; use absolute coordinates
M83 ; extruder relative mode
M104 S210 ; set extruder temp
M140 S60 ; set bed temp
M190 S60 ; wait for bed temp
M109 S210 ; wait for extruder temp
G28 ; home all
G92 E0.0 ; set position home
G1 Z0.28 F240
G1 X5 F5000 ; move purge line in a little
G1 Y190 E15.0 F1500.0 ; purge up
G1 X7.3 F5000 ; move purge over
G1 Y15 E30 F1200.0 ; purge down
G92 E0.0 ; set home after purge line
G21 ; set units to millimeters
G90 ; use absolute coordinates
M83 ; use relative distances for extrusion
; Filament gcode
M107
;LAYER_CHANGE
;Z:0.2
;HEIGHT:0.2
;BEFORE_LAYER_CHANGE
;0.2


G1 E-2 F1620
G1 Z.5 F7800
;AFTER_LAYER_CHANGE
;0.2
G1 X67.849 Y90.46
G1 Z.2
G1 E2 F2400
;TYPE:Skirt/Brim
;WIDTH:0.4
G1 F1800
G1 X69.078 Y89.799 E.04143
G1 X150.974 Y56.435 E2.62564
G1 X153.372 Y55.965 E.07256
G1 X163.372 Y55.965 E.29691
G1 X165.583 Y56.362 E.06669
G1 X167.081 Y57.159 E.05037
G1 X178.533 Y65.386 E.41868
G1 X179.962 Y66.679 E.05722
G1 X180.801 Y67.781 E.04111
G1 X181.643 Y69.441 E.05527
G1 X187.621 Y84.259 E.47441
G1 X187.907 Y85.153 E.02787
G1 X188.171 Y86.582 E.04316
G1 X188.209 Y88.063 E.04397
G1 X188.016 Y89.517 E.04356
G1 X187.422 Y91.348 E.05715
G1 X186.581 Y92.864 E.05149
G1 X111.836 Y204.356 E3.9854
G1 X110.275 Y205.971 E.06669
G1 X108.25 Y206.943 E.06669
G1 X106.555 Y207.173 E.05077
G1 X102.085 Y207.173 E.13274
G1 X99.874 Y206.776 E.06669
G1 X97.939 Y205.635 E.06669
G1 X96.269 Y203.382 E.08327
G1 X64.584 Y131.575 E2.33037
G1 X58.375 Y116.201 E.4923
G1 X58.089 Y115.307 E.02788
G1 X57.786 Y113.394 E.05749
G1 X57.823 Y111.927 E.04357
G1 X58.089 Y110.484 E.04357
G1 X58.375 Y109.59 E.02788
G1 X64.527 Y94.35 E.488
G1 X64.98 Y93.461 E.02962
G1 X65.759 Y92.335 E.04064
G1 X66.739 Y91.306 E.04221
G1 X67.801 Y90.497 E.03964
G1 E-1.4 F1620
;WIPE_START
G1 F6240
G1 X69.078 Y89.799 E-.35874
G1 X69.871 Y89.476 E-.21126
;WIPE_END
G1 E-.03 F1620
G1 Z.7 F7800
G1 X103.418 Y190.236
G1 Z.2
G1 E2 F2400
;TYPE:Perimeter
G1 F1800
G1 X104.996 Y190.371 E.047
G1 X105.826 Y190.589 E.0255
G1 X105.482 Y199.702 E.27076
G1 X103.199 Y199.702 E.0678
G1 X103.199 Y190.217 E.2816
G1 X103.359 Y190.231 E.00476
G1 X103.24 Y189.862 F7800
G1 F1800
G1 X105.057 Y190.018 E.05412
G1 X106.194 Y190.316 E.03492
G1 X105.826 Y200.059 E.28947
G1 X102.842 Y200.059 E.08861
G1 X102.842 Y189.828 E.30375
G1 X103.18 Y189.857 E.0101
M73 P0 R72
G1 X102.485 Y189.439 F7800
;TYPE:External perimeter
G1 F1800
G1 X105.118 Y189.664 E.07846
G1 X106.562 Y190.044 E.04433
G1 X106.17 Y200.416 E.30818
G1 X102.485 Y200.416 E.10942
G1 X102.485 Y189.499 E.32412
G1 X102.841 Y189.621 F7800
G1 E-1.4 F1620
;WIPE_START
G1 F6240
G1 X104.791 Y189.644 E-.57
;WIPE_END
G1 E-.03 F1620
G1 Z.7 F7800
G1 X104.758 Y190.458
G1 Z.2
G1 E2 F2400
;TYPE:Solid infill
;WIDTH:0.409376
G1 F1800
G1 X105.534 Y191.234 E.03344
G1 X105.515 Y191.733 E.01523
G1 X104.368 Y190.586 E.04945
G1 X103.801 Y190.537 E.01733
G1 X105.496 Y192.233 E.07306
G1 X105.477 Y192.732 E.01523
G1 X103.467 Y190.721 E.08665
G1 X103.467 Y191.24 E.01579
G1 X105.459 Y193.232 E.08584
G1 X105.44 Y193.731 E.01523
G1 X103.467 Y191.758 E.08503
G1 X103.467 Y192.276 E.01579
G1 X105.421 Y194.23 E.08422
G1 X105.402 Y194.73 E.01523
G1 X103.467 Y192.794 E.0834
G1 X103.467 Y193.313 E.01579
G1 X105.383 Y195.229 E.08259
G1 X105.364 Y195.729 E.01523
G1 X103.467 Y193.831 E.08178
G1 X103.467 Y194.349 E.01579
G1 X105.346 Y196.228 E.08097
G1 X105.327 Y196.727 E.01523
G1 X103.467 Y194.867 E.08016
G1 X103.467 Y195.386 E.01579
G1 X105.308 Y197.227 E.07934
G1 X105.289 Y197.726 E.01523
G1 X103.467 Y195.904 E.07853
G1 X103.467 Y196.422 E.01579
G1 X105.27 Y198.226 E.07772
G1 X105.251 Y198.725 E.01523
G1 X103.467 Y196.94 E.07691
G1 X103.467 Y197.459 E.01579
G1 X105.232 Y199.224 E.07609
G1 X105.225 Y199.434 E.00638
G1 X104.923 Y199.434 E.00918
G1 X103.467 Y197.977 E.06277
G1 X103.467 Y198.495 E.01579
G1 X104.405 Y199.434 E.04044
G1 X103.887 Y199.434 E.01579
G1 X103.306 Y198.853 E.02503
G1 E-1.4 F1620
;WIPE_START
G1 F6240
G1 X103.887 Y199.434 E-.20262
G1 X104.405 Y199.434 E-.12782
G1 X103.718 Y198.747 E-.23956
;WIPE_END
G1 E-.03 F1620
G1 Z.7 F7800
G1 X70.752 Y114.781
G1 Z.2
G1 E2 F2400
;TYPE:Perimeter
;WIDTH:0.4
G1 F1800
G1 X68.723 Y114.781 E.06024
G1 X69.09 Y114.399 E.01574
G1 X69.338 Y114.031 E.01318
G1 X69.521 Y113.626 E.01319
G1 X69.633 Y113.196 E.01319
G1 X69.671 Y112.754 E.01319
G1 X69.633 Y112.311 E.01319
G1 X69.521 Y111.882 E.01319
G1 X69.338 Y111.477 E.01319
G1 X69.022 Y111.01 E.01675
G1 X71.238 Y111.01 E.06577
G1 X71.238 Y97.979 E.38689
G1 X71.259 Y97.713 E.00793
G1 X71.311 Y97.496 E.00663
G1 X71.396 Y97.29 E.00663
G1 X71.513 Y97.1 E.00663
G1 X71.658 Y96.93 E.00663
G1 X71.827 Y96.785 E.00663
G1 X72.018 Y96.668 E.00663
G1 X72.224 Y96.583 E.00663
G1 X72.441 Y96.531 E.00663
G1 X72.707 Y96.51 E.00793
G1 X73.572 Y96.51 E.02566
G1 X73.572 Y129.281 E.97303
G1 X72.707 Y129.281 E.02566
G1 X72.441 Y129.26 E.00793
G1 X72.224 Y129.208 E.00663
G1 X72.018 Y129.123 E.00663
G1 X71.827 Y129.006 E.00663
G1 X71.658 Y128.861 E.00663
G1 X71.513 Y128.692 E.00663
G1 X71.396 Y128.501 E.00663
G1 X71.311 Y128.295 E.00663
G1 X71.259 Y128.078 E.00663
G1 X71.238 Y127.812 E.00793
G1 X71.238 Y114.781 E.38689
G1 X70.812 Y114.781 E.01264
M73 P1 R72
G1 X70.438 Y115.139 F7800
G1 F1800
G1 X67.579 Y115.139 E.08488
G1 X67.552 Y114.956 E.00548
G1 X67.895 Y114.851 E.01066
G1 X68.237 Y114.678 E.01138
G1 X68.546 Y114.45 E.01138
G1 X68.811 Y114.174 E.01138
G1 X69.025 Y113.856 E.01138
G1 X69.183 Y113.507 E.01138
G1 X69.28 Y113.136 E.01138
G1 X69.312 Y112.754 E.01138
G1 X69.28 Y112.372 E.01138
G1 X69.183 Y112.001 E.01138
G1 X69.025 Y111.652 E.01138
G1 X68.811 Y111.334 E.01138
G1 X68.546 Y111.058 E.01138
G1 X68.197 Y110.8 E.01287
G1 X68.246 Y110.653 E.0046
G1 X70.881 Y110.653 E.07824
G1 X70.881 Y97.965 E.3767
G1 X70.905 Y97.657 E.00918
G1 X70.97 Y97.385 E.0083
G1 X71.077 Y97.127 E.0083
G1 X71.223 Y96.889 E.0083
G1 X71.404 Y96.677 E.0083
G1 X71.617 Y96.495 E.0083
G1 X71.855 Y96.349 E.0083
G1 X72.113 Y96.242 E.0083
G1 X72.385 Y96.177 E.0083
G1 X72.693 Y96.153 E.00918
G1 X73.929 Y96.153 E.03668
G1 X73.929 Y129.639 E.99424
G1 X72.693 Y129.639 E.03668
G1 X72.385 Y129.614 E.00918
G1 X72.113 Y129.549 E.0083
G1 X71.855 Y129.442 E.0083
G1 X71.617 Y129.296 E.0083
G1 X71.404 Y129.115 E.0083
G1 X71.223 Y128.902 E.0083
G1 X71.077 Y128.664 E.0083
G1 X70.97 Y128.406 E.0083
G1 X70.905 Y128.134 E.0083
G1 X70.881 Y127.826 E.00918
G1 X70.881 Y115.139 E.3767
G1 X70.498 Y115.139 E.01137
G1 E-1.4 F1620
;WIPE_START
G1 F6240
G1 X68.187 Y115.139 E-.57
;WIPE_END
G1 E-.03 F1620
G1 Z.7 F7800
G1 X68.532 Y113.949
G1 Z.2
G1 E2 F2400
;TYPE:External perimeter
G1 F1800
G1 X68.309 Y114.181 E.00958
G1 X68.05 Y114.373 E.00958
G1 X67.762 Y114.518 E.00958
G1 X67.453 Y114.613 E.00958
G1 X67.133 Y114.654 E.00958
G1 X66.811 Y114.64 E.00958
G1 X66.496 Y114.572 E.00958
G1 X66.196 Y114.452 E.00958
G1 X65.922 Y114.283 E.00958
G1 X65.702 Y114.089 E.00872
G1 X65.478 Y113.82 E.01038
G1 X65.32 Y113.537 E.00962
G1 X65.212 Y113.233 E.00958
G1 X65.158 Y112.915 E.00958
G1 X65.158 Y112.593 E.00958
G1 X65.212 Y112.275 E.00958
G1 X65.32 Y111.971 E.00958
G1 X65.477 Y111.689 E.00958
G1 X65.68 Y111.438 E.00958
G1 X65.922 Y111.225 E.00958
G1 X66.196 Y111.056 E.00958
G1 X66.496 Y110.936 E.00958
G1 X66.811 Y110.868 E.00958
G1 X67.106 Y110.855 E.00876
G1 X67.452 Y110.895 E.01034
G1 X67.762 Y110.99 E.00962
G1 X68.05 Y111.135 E.00958
G1 X68.309 Y111.327 E.00958
G1 X68.532 Y111.559 E.00958
G1 X68.713 Y111.827 E.00958
G1 X68.845 Y112.121 E.00958
G1 X68.927 Y112.433 E.00958
G1 X68.954 Y112.754 E.00958
G1 X68.927 Y113.075 E.00958
G1 X68.845 Y113.387 E.00958
G1 X68.713 Y113.681 E.00958
G1 X68.566 Y113.899 E.00779
G1 X68.648 Y114.249 F7800
G1 E-1.4 F1620
;WIPE_START
G1 F6240
G1 X68.309 Y114.181 E-.09416
G1 X68.05 Y114.373 E-.07954
G1 X67.762 Y114.518 E-.07954
G1 X67.453 Y114.613 E-.07955
G1 X67.133 Y114.654 E-.07954
G1 X66.811 Y114.64 E-.07954
G1 X66.501 Y114.573 E-.07812
;WIPE_END
G1 E-.03 F1620
G1 Z.7 F7800
G1 X70.524 Y115.496
G1 Z.2
G1 E2 F2400
G1 F1800
G1 X67.139 Y115.496 E.10049
G1 X66.717 Y115.462 E.01258
G1 X66.32 Y115.367 E.01211
G1 X65.943 Y115.211 E.01211
G1 X65.596 Y114.998 E.01211
G1 X65.286 Y114.733 E.01211
G1 X65.021 Y114.423 E.01211
G1 X64.808 Y114.075 E.01211
G1 X64.652 Y113.699 E.01211
G1 X64.556 Y113.302 E.01211
G1 X64.524 Y112.896 E.01211
G1 X64.556 Y112.489 E.01211
G1 X64.652 Y112.093 E.01211
G1 X64.808 Y111.716 E.01211
G1 X65.018 Y111.373 E.01192
G1 X65.286 Y111.058 E.0123
G1 X65.596 Y110.793 E.0121
G1 X65.943 Y110.58 E.01211
G1 X66.32 Y110.424 E.01211
G1 X66.717 Y110.329 E.01211
G1 X67.139 Y110.296 E.01258
G1 X70.524 Y110.296 E.10049
G1 X70.524 Y97.951 E.36652
G1 X70.551 Y97.601 E.01043
G1 X70.629 Y97.275 E.00996
G1 X70.758 Y96.965 E.00996
G1 X70.933 Y96.678 E.00997
G1 X71.151 Y96.423 E.00996
G1 X71.406 Y96.205 E.00996
G1 X71.693 Y96.03 E.00997
G1 X72.003 Y95.902 E.00997
G1 X72.329 Y95.823 E.00997
G1 X72.679 Y95.796 E.01043
G1 X74.286 Y95.796 E.0477
G1 X74.286 Y129.996 E1.01544
G1 X72.679 Y129.996 E.0477
G1 X72.329 Y129.968 E.01043
G1 X72.003 Y129.89 E.00997
G1 X71.693 Y129.761 E.00997
G1 X71.406 Y129.586 E.00997
G1 X71.151 Y129.368 E.00997
G1 X70.933 Y129.113 E.00996
G1 X70.758 Y128.827 E.00996
G1 X70.629 Y128.517 E.00996
G1 X70.551 Y128.19 E.00996
G1 X70.524 Y127.84 E.01043
G1 X70.524 Y115.556 E.36474
G1 X70.523 Y115.096 F7800
G1 E-1.4 F1620
;WIPE_START
G1 F6240
G1 X68.213 Y115.515 E-.57
;WIPE_END
G1 E-.03 F1620
G1 Z.7 F7800
G1 X68.469 Y114.756
G1 Z.2
G1 E2 F2400
;TYPE:Gap fill
;WIDTH:0.113335
G1 F1800
G1 X68.352 Y114.859 E.00091
;WIDTH:0.114883
G1 X68.348 Y114.863 E.00004
;WIDTH:0.141893
G1 X68.216 Y114.96 E.00134
G1 X67.144 Y115.074 F7800
;WIDTH:0.526417
G1 F1800
G1 X67.131 Y115.074 E.00056
;WIDTH:0.525518
G1 X66.782 Y115.053 E.01403
;WIDTH:0.512901
G1 X66.778 Y115.052 E.00013
;WIDTH:0.51224
G1 X66.739 Y115.045 E.00155
;WIDTH:0.50794
G1 X66.447 Y114.978 E.01161
;WIDTH:0.500934
G1 X66.396 Y114.963 E.00202
;WIDTH:0.391938
G1 X66.037 Y114.809 E.01134
G1 X65.71 Y114.597 E.01129
G1 X65.428 Y114.334 E.0112
G1 X65.178 Y114.006 E.01197
;WIDTH:0.365487
G1 X65.005 Y113.665 E.01028
;WIDTH:0.368691
G1 X64.977 Y113.593 E.00208
;WIDTH:0.368694
G1 X64.899 Y113.328 E.00749
;WIDTH:0.339944
G1 X64.893 Y113.303 E.00062
;WIDTH:0.343003
G1 X64.882 Y113.251 E.00134
;WIDTH:0.343005
G1 X64.845 Y112.953 E.00747
;WIDTH:0.315685
G1 X64.843 Y112.93 E.00052
;WIDTH:0.318274
G1 X64.842 Y112.896 E.0008
;WIDTH:0.318273
G1 X64.854 Y112.578 E.00729
;WIDTH:0.29341
G1 X64.856 Y112.556 E.00044
;WIDTH:0.2952
G1 X64.858 Y112.537 E.00041
;WIDTH:0.2952
G1 X64.925 Y112.21 E.007
;WIDTH:0.273637
G1 X64.93 Y112.191 E.00038
;WIDTH:0.274448
G1 X64.932 Y112.184 E.00015
;WIDTH:0.274448
G1 X65.056 Y111.861 E.00665
;WIDTH:0.256587
G1 X65.063 Y111.846 E.0003
;WIDTH:0.256586
G1 X65.063 Y111.845 E.00002
;WIDTH:0.256539
G1 X65.242 Y111.54 E.00627
;WIDTH:0.242304
G1 X65.243 Y111.537 E.00006
;WIDTH:0.242223
G1 X65.252 Y111.527 E.00022
;WIDTH:0.240978
G1 X65.477 Y111.255 E.00581
;WIDTH:0.232052
G1 X65.48 Y111.251 E.00007
;WIDTH:0.232048
G1 X65.488 Y111.244 E.00018
;WIDTH:0.231185
G1 X65.755 Y111.012 E.00552
;WIDTH:0.22594
G1 X65.755 Y111.012 E0
;WIDTH:0.225937
G1 X65.768 Y111.004 E.00023
;WIDTH:0.224618
G1 X66.066 Y110.821 E.00529
;WIDTH:0.223879
G1 X66.069 Y110.819 E.00004
;WIDTH:0.223431
G1 X66.082 Y110.813 E.00023
;WIDTH:0.22598
G1 X66.404 Y110.682 E.00529
;WIDTH:0.225979
G1 X66.409 Y110.68 E.00009
;WIDTH:0.225162
G1 X66.424 Y110.676 E.00023
;WIDTH:0.232244
G1 X66.76 Y110.6 E.00542
;WIDTH:0.232245
G1 X66.768 Y110.598 E.00014
;WIDTH:0.231059
G1 X66.784 Y110.597 E.00025
;WIDTH:0.241978
G1 X67.108 Y110.577 E.00536
;WIDTH:0.243754
G1 X67.123 Y110.577 E.00026
;WIDTH:0.24888
G1 X67.15 Y110.577 E.00046
;WIDTH:0.288813
G1 X67.502 Y110.597 E.00721
;WIDTH:0.293517
G1 X67.525 Y110.599 E.00048
;WIDTH:0.328094
G1 X67.641 Y110.617 E.00277
;WIDTH:0.362672
G1 X67.756 Y110.634 E.00311
;WIDTH:0.378708
G1 X67.872 Y110.651 E.00326
G1 X67.981 Y110.885 E.0072
G1 X68.625 Y110.831 F7800
;WIDTH:0.125105
G1 F1800
G1 X68.685 Y110.894 E.0006
;WIDTH:0.114888
G1 X68.689 Y110.899 E.00004
;WIDTH:0.113338
G1 X68.787 Y111.02 E.00091
G1 E-1.4 F1620
;WIPE_START
G1 F6240
G1 X68.689 Y110.899 E-.03851
;WIPE_END
G1 E-.56149 F1620
G1 Z.7 F7800
G1 X73.464 Y97.342
G1 Z.2
G1 E2 F2400
;TYPE:Solid infill
;WIDTH:0.401331
G1 F1800
G1 X72.901 Y96.778 E.02377
G1 X72.426 Y96.81 E.01418
G1 X73.304 Y97.688 E.037
G1 X73.304 Y98.195 E.01511
G1 X72.064 Y96.954 E.05227
G1 X71.985 Y97.002 E.00273
G1 X71.79 Y97.188 E.00803
G1 X73.304 Y98.701 E.06381
G1 X73.304 Y99.208 E.01511
G1 X71.598 Y97.502 E.0719
G1 X71.524 Y97.755 E.00785
G1 X71.511 Y97.922 E.00499
G1 X73.304 Y99.715 E.07557
G1 X73.304 Y100.222 E.01511
G1 X71.505 Y98.424 E.07579
G1 X71.505 Y98.931 E.01511
G1 X73.304 Y100.729 E.07579
G1 X73.304 Y101.236 E.01511
G1 X71.505 Y99.437 E.07579
G1 X71.505 Y99.944 E.01511
G1 X73.304 Y101.743 E.07579
G1 X73.304 Y102.25 E.01511
G1 X71.505 Y100.451 E.07579
G1 X71.505 Y100.958 E.01511
G1 X73.304 Y102.756 E.07579
G1 X73.304 Y103.263 E.01511
G1 X71.505 Y101.465 E.07579
G1 X71.505 Y101.972 E.01511
G1 X73.304 Y103.77 E.07579
G1 X73.304 Y104.277 E.01511
G1 X71.505 Y102.479 E.07579
G1 X71.505 Y102.986 E.01511
G1 X73.304 Y104.784 E.07579
G1 X73.304 Y105.291 E.01511
G1 X71.505 Y103.492 E.07579
G1 X71.505 Y103.999 E.01511
G1 X73.304 Y105.798 E.07579
G1 X73.304 Y106.305 E.01511
G1 X71.505 Y104.506 E.07579
G1 X71.505 Y105.013 E.01511
G1 X73.304 Y106.811 E.07579
G1 X73.304 Y107.318 E.01511
G1 X71.505 Y105.52 E.07579
G1 X71.505 Y106.027 E.01511
G1 X73.304 Y107.825 E.07579
G1 X73.304 Y108.332 E.01511
G1 X71.505 Y106.534 E.07579
G1 X71.505 Y107.041 E.01511
G1 X73.304 Y108.839 E.07579
G1 X73.304 Y109.346 E.01511
G1 X71.505 Y107.547 E.07579
G1 X71.505 Y108.054 E.01511
G1 X73.304 Y109.853 E.07579
G1 X73.304 Y110.359 E.01511
G1 X71.505 Y108.561 E.07579
G1 X71.505 Y109.068 E.01511
G1 X73.304 Y110.866 E.07579
G1 X73.304 Y111.373 E.01511
G1 X71.505 Y109.575 E.07579
G1 X71.505 Y110.082 E.01511
G1 X73.304 Y111.88 E.07579
G1 X73.304 Y112.387 E.01511
G1 X71.505 Y110.589 E.07579
G1 X71.505 Y111.095 E.01511
G1 X73.304 Y112.894 E.07579
G1 X73.304 Y113.401 E.01511
G1 X71.181 Y111.278 E.08948
G1 X70.674 Y111.278 E.01511
G1 X73.304 Y113.908 E.11084
G1 X73.304 Y114.414 E.01511
G1 X70.167 Y111.278 E.13221
G1 X69.66 Y111.278 E.01511
G1 X73.304 Y114.921 E.15357
G1 X73.304 Y115.428 E.01511
G1 X69.812 Y111.937 E.14716
G1 X69.898 Y112.266 E.01015
G1 X69.923 Y112.554 E.00861
G1 X73.304 Y115.935 E.14251
G1 X73.304 Y116.442 E.01511
G1 X69.914 Y113.052 E.14286
G1 X69.898 Y113.242 E.00567
G1 X69.836 Y113.481 E.00736
G1 X70.869 Y114.514 E.04353
G1 X70.362 Y114.514 E.01511
G1 X69.709 Y113.861 E.02751
G1 X69.545 Y114.204 E.01132
G1 X69.855 Y114.514 E.01307
G1 X69.348 Y114.514 E.01511
G1 X69.225 Y114.39 E.0052
G1 E-1.4 F1620
;WIPE_START
G1 F6240
G1 X69.348 Y114.514 E-.04304
G1 X69.855 Y114.514 E-.12501
G1 X69.545 Y114.204 E-.10817
G1 X69.709 Y113.861 E-.09371
