; generated by PrusaSlicer 2.4.0+win64 on 2022-03-11 at 16:21:52 UTC

; 

; external perimeters extrusion width = 0.45mm
; perimeters extrusion width = 0.45mm
; infill extrusion width = 0.45mm
; solid infill extrusion width = 0.45mm
; top infill extrusion width = 0.40mm
; first layer extrusion width = 0.40mm

M73 P0 R168
M201 X500 Y500 Z100 E5000 ; sets maximum accelerations, mm/sec^2
M203 X500 Y500 Z10 E60 ; sets maximum feedrates, mm/sec
M204 P500 R1000 T500 ; sets acceleration (P, T) and retract acceleration (R), mm/sec^2
M205 X8.00 Y8.00 Z0.40 E5.00 ; sets the jerk limits, mm/sec
M205 S0 T0 ; sets the minimum extruding and travel feed rate, mm/sec
M107
;TYPE:Custom
G90 ; use absolute coordinates
M83 ; extruder relative mode
M104 S210 ; set extruder temp
M140 S60 ; set bed temp
M190 S60 ; wait for bed temp
M109 S210 ; wait for extruder temp
G28 ; home all
G92 E0.0 ; set position home
G1 Z0.28 F240
G1 X5 F5000 ; move purge line in a little
G1 Y190 E15.0 F1500.0 ; purge up
G1 X7.3 F5000 ; move purge over
M73 P0 R167
G1 Y15 E30 F1200.0 ; purge down
G92 E0.0 ; set home after purge line
G21 ; set units to millimeters
G90 ; use absolute coordinates
M83 ; use relative distances for extrusion
; Filament gcode
M107
;LAYER_CHANGE
;Z:0.2
;HEIGHT:0.2
;BEFORE_LAYER_CHANGE
;0.2


G1 E-2 F1620
G1 Z.5 F7800
;AFTER_LAYER_CHANGE
;0.2
G1 X99.461 Y103.269
G1 Z.2
G1 E2 F2400
;TYPE:Skirt/Brim
;WIDTH:0.4
G1 F1800
G1 X101.203 Y101.852 E.06669
G1 X104.28 Y101.058 E.09434
G1 X195.72 Y101.058 E2.71497
G1 X197.931 Y101.455 E.06669
G1 X199.866 Y102.596 E.06669
G1 X201.283 Y104.338 E.06669
G1 X202.077 Y107.415 E.09434
G1 X202.047 Y120.737 E.39556
G1 X194.427 Y198.207 E2.31128
G1 X193.815 Y200.369 E.06669
G1 X192.49 Y202.183 E.06669
G1 X190.617 Y203.422 E.06669
G1 X188.1 Y203.942 E.07631
G1 X111.898 Y203.942 E2.26254
G1 X109.687 Y203.545 E.06669
G1 X107.752 Y202.404 E.06669
G1 X106.335 Y200.662 E.06669
G1 X105.571 Y198.207 E.07632
G1 X97.953 Y120.737 E2.31128
G1 X97.923 Y107.415 E.39555
G1 X98.32 Y105.204 E.06669
G1 X99.43 Y103.321 E.06491
G1 E-1.4 F1620
;WIPE_START
G1 F6240
G1 X101.203 Y101.852 E-.5679
G1 X101.212 Y101.85 E-.0021
;WIPE_END
G1 E-.03 F1620
G1 Z.7 F7800
G1 X183.349 Y191.464
G1 Z.2
G1 E2 F2400
;TYPE:External perimeter
G1 F1800
G1 X183.674 Y191.223 E.01202
G1 X184.034 Y191.043 E.01196
G1 X184.421 Y190.923 E.01203
G1 X184.823 Y190.872 E.01204
G1 X185.228 Y190.889 E.01202
G1 X185.621 Y190.975 E.01196
G1 X185.998 Y191.124 E.01202
G1 X186.344 Y191.337 E.01206
G1 X186.646 Y191.606 E.01203
G1 X186.901 Y191.92 E.012
G1 X187.098 Y192.274 E.01202
G1 X187.232 Y192.653 E.01195
G1 X187.302 Y193.052 E.01203
G1 X187.302 Y193.458 E.01204
G1 X187.232 Y193.857 E.01202
G1 X187.098 Y194.238 E.01201
G1 X186.901 Y194.592 E.01203
G1 X186.646 Y194.907 E.01203
G1 X186.343 Y195.174 E.01199
G1 X185.999 Y195.386 E.012
G1 X185.621 Y195.537 E.01208
G1 X185.228 Y195.621 E.01195
G1 X184.823 Y195.64 E.01202
G1 X184.421 Y195.587 E.01204
G1 X184.034 Y195.47 E.01201
G1 X183.673 Y195.287 E.01202
G1 X183.349 Y195.047 E.01196
G1 X183.068 Y194.755 E.01203
G1 X182.842 Y194.419 E.01203
G1 X182.673 Y194.051 E.01201
G1 X182.572 Y193.658 E.01205
G1 X182.539 Y193.255 E.01201
G1 X182.572 Y192.854 E.01195
G1 X182.673 Y192.461 E.01204
G1 X182.842 Y192.091 E.01208
G1 X183.068 Y191.757 E.01198
G1 X183.307 Y191.507 E.01027
G1 X183.27 Y191.072 F7800
G1 E-1.4 F1620
;WIPE_START
G1 F6240
G1 X183.674 Y191.223 E-.11443
G1 X184.034 Y191.043 E-.09936
G1 X184.421 Y190.923 E-.0999
G1 X184.823 Y190.872 E-.09997
G1 X185.228 Y190.889 E-.09982
G1 X185.451 Y190.938 E-.05653
;WIPE_END
G1 E-.03 F1620
G1 Z.7 F7800
G1 X183.296 Y195.896
G1 Z.2
G1 E2 F2400
;TYPE:Perimeter
G1 F1800
G1 X183.767 Y196.135 E.01566
G1 X184.271 Y196.288 E.01565
G1 X184.244 Y196.471 E.00548
G1 X182.862 Y196.471 E.04103
G1 X182.862 Y195.575 E.02661
G1 X183.248 Y195.861 E.01427
G1 E-1.4 F1620
;WIPE_START
G1 F6240
G1 X183.767 Y196.135 E-.14467
G1 X184.271 Y196.288 E-.12999
G1 X184.244 Y196.471 E-.04556
G1 X183.231 Y196.471 E-.24978
;WIPE_END
G1 E-.03 F1620
G1 Z.7 F7800
G1 X186.986 Y196.471
G1 Z.2
G1 E2 F2400
G1 F1800
G1 X185.586 Y196.471 E.04157
G1 X185.566 Y196.279 E.00573
G1 X185.83 Y196.223 E.00803
G1 X186.321 Y196.026 E.01571
G1 X186.769 Y195.75 E.01562
G1 X186.986 Y195.559 E.00858
G1 X186.986 Y196.411 E.02529
G1 X187.343 Y196.828 F7800
G1 F1800
G1 X182.505 Y196.828 E.14364
G1 X182.505 Y194.83 E.05931
G1 X182.657 Y194.784 E.00471
G1 X182.789 Y194.981 E.00703
G1 X183.113 Y195.316 E.01385
G1 X183.485 Y195.591 E.01373
G1 X183.901 Y195.802 E.01384
G1 X184.345 Y195.937 E.0138
G1 X184.808 Y195.998 E.01387
G1 X185.274 Y195.976 E.01383
G1 X185.726 Y195.88 E.01372
G1 X186.16 Y195.706 E.01389
G1 X186.556 Y195.462 E.01381
G1 X186.904 Y195.155 E.01379
G1 X187.343 Y194.613 E.0207
G1 X187.343 Y196.768 E.06399
G1 E-1.4 F1620
;WIPE_START
G1 F6240
G1 X185.032 Y196.797 E-.57
;WIPE_END
G1 E-.03 F1620
G1 Z.7 F7800
G1 X117.136 Y196.471
G1 Z.2
G1 E2 F2400
G1 F1800
G1 X115.736 Y196.471 E.04157
G1 X115.716 Y196.279 E.00573
G1 X115.98 Y196.223 E.00803
G1 X116.471 Y196.026 E.01571
G1 X116.919 Y195.75 E.01562
G1 X117.136 Y195.559 E.00858
G1 X117.136 Y196.411 E.02529
G1 E-1.4 F1620
;WIPE_START
G1 F6240
G1 X115.736 Y196.471 E-.34558
G1 X115.716 Y196.279 E-.04756
G1 X115.98 Y196.223 E-.06668
G1 X116.395 Y196.056 E-.11018
;WIPE_END
G1 E-.03 F1620
G1 Z.7 F7800
G1 X114.421 Y196.288
G1 Z.2
G1 E2 F2400
G1 F1800
G1 X114.394 Y196.471 E.00548
G1 X113.012 Y196.471 E.04103
G1 X113.012 Y195.575 E.02661
G1 X113.446 Y195.896 E.01605
G1 X113.917 Y196.135 E.01566
G1 X114.364 Y196.271 E.01387
G1 X114.468 Y195.929 F7800
G1 F1800
G1 X114.958 Y195.998 E.01471
G1 X115.424 Y195.976 E.01383
G1 X115.876 Y195.88 E.01372
G1 X116.31 Y195.706 E.01389
G1 X116.706 Y195.462 E.01381
G1 X117.054 Y195.155 E.01379
G1 X117.493 Y194.613 E.0207
G1 X117.493 Y196.828 E.06577
G1 X112.655 Y196.828 E.14364
G1 X112.655 Y194.83 E.05931
G1 X112.807 Y194.784 E.00471
G1 X112.939 Y194.981 E.00703
G1 X113.263 Y195.316 E.01385
G1 X113.635 Y195.591 E.01373
G1 X114.051 Y195.802 E.01384
G1 X114.41 Y195.912 E.01116
G1 X114.514 Y195.57 F7800
;TYPE:External perimeter
G1 F1800
G1 X114.184 Y195.47 E.01024
G1 X113.823 Y195.287 E.01202
G1 X113.499 Y195.047 E.01196
G1 X113.218 Y194.755 E.01203
G1 X112.992 Y194.419 E.01203
G1 X112.824 Y194.051 E.01201
G1 X112.722 Y193.658 E.01205
G1 X112.689 Y193.255 E.01201
G1 X112.722 Y192.854 E.01195
G1 X112.823 Y192.461 E.01204
G1 X112.992 Y192.091 E.01208
G1 X113.218 Y191.757 E.01198
G1 X113.499 Y191.464 E.01205
G1 X113.824 Y191.223 E.01202
G1 X114.184 Y191.043 E.01196
G1 X114.571 Y190.923 E.01203
G1 X114.973 Y190.872 E.01204
G1 X115.378 Y190.889 E.01202
G1 X115.771 Y190.975 E.01196
G1 X116.148 Y191.124 E.01202
G1 X116.494 Y191.337 E.01206
G1 X116.796 Y191.606 E.01203
G1 X117.051 Y191.92 E.012
G1 X117.248 Y192.274 E.01202
G1 X117.382 Y192.653 E.01195
G1 X117.452 Y193.052 E.01203
G1 X117.452 Y193.458 E.01204
G1 X117.382 Y193.857 E.01202
G1 X117.248 Y194.238 E.01201
G1 X117.051 Y194.592 E.01203
G1 X116.796 Y194.907 E.01203
G1 X116.493 Y195.174 E.01199
G1 X116.149 Y195.386 E.012
G1 X115.771 Y195.537 E.01208
G1 X115.378 Y195.621 E.01195
G1 X114.973 Y195.64 E.01202
G1 X114.572 Y195.587 E.01203
G1 X114.282 Y195.825 F7800
G1 E-1.4 F1620
;WIPE_START
G1 F6240
G1 X114.184 Y195.47 E-.09987
G1 X113.823 Y195.287 E-.09986
G1 X113.499 Y195.047 E-.09935
G1 X113.218 Y194.755 E-.09993
G1 X112.992 Y194.419 E-.09997
G1 X112.872 Y194.157 E-.07102
;WIPE_END
G1 E-.03 F1620
G1 Z.7 F7800
G1 X109.026 Y119.305
G1 Z.2
G1 E2 F2400
G1 F1800
G1 X108.623 Y119.322 E.01197
G1 X108.222 Y119.272 E.012
G1 X107.834 Y119.154 E.01204
G1 X107.474 Y118.971 E.012
G1 X107.147 Y118.73 E.01206
G1 X106.867 Y118.437 E.01203
G1 X106.642 Y118.103 E.01195
G1 X106.474 Y117.733 E.01208
G1 X106.372 Y117.342 E.01198
G1 X106.339 Y116.939 E.01202
G1 X106.372 Y116.536 E.01202
G1 X106.474 Y116.145 E.01198
G1 X106.642 Y115.775 E.01208
G1 X106.867 Y115.441 E.01195
G1 X107.147 Y115.148 E.01203
G1 X107.475 Y114.907 E.01209
G1 X107.834 Y114.727 E.01194
G1 X108.221 Y114.607 E.01203
G1 X108.623 Y114.556 E.01204
G1 X109.026 Y114.573 E.01197
G1 X109.424 Y114.657 E.01207
G1 X109.797 Y114.809 E.01196
G1 X110.143 Y115.02 E.01205
G1 X110.446 Y115.29 E.01205
G1 X110.7 Y115.604 E.01199
G1 X110.898 Y115.955 E.01198
G1 X111.033 Y116.339 E.01206
G1 X111.1 Y116.737 E.01201
G1 X111.1 Y117.141 E.01197
G1 X111.033 Y117.539 E.01201
G1 X110.898 Y117.922 E.01204
G1 X110.7 Y118.277 E.01205
G1 X110.446 Y118.589 E.01196
G1 X110.143 Y118.858 E.01202
G1 X109.797 Y119.069 E.01205
G1 X109.424 Y119.221 E.01196
G1 X109.085 Y119.293 E.01028
G1 X108.872 Y119.674 F7800
G1 E-1.4 F1620
;WIPE_START
G1 F6240
G1 X108.623 Y119.322 E-.11408
G1 X108.222 Y119.272 E-.09969
G1 X107.834 Y119.154 E-.10002
G1 X107.474 Y118.971 E-.09969
G1 X107.147 Y118.73 E-.10016
G1 X106.989 Y118.565 E-.05636
;WIPE_END
G1 E-.03 F1620
G1 Z.7 F7800
G1 X188.889 Y116.939
G1 Z.2
G1 E2 F2400
G1 F1800
G1 X188.922 Y116.535 E.01205
G1 X189.026 Y116.145 E.01197
G1 X189.191 Y115.776 E.01202
G1 X189.417 Y115.441 E.01198
G1 X189.697 Y115.148 E.01203
G1 X190.025 Y114.907 E.01209
G1 X190.384 Y114.727 E.01194
G1 X190.771 Y114.607 E.01203
G1 X191.173 Y114.556 E.01204
G1 X191.576 Y114.573 E.01198
G1 X191.971 Y114.657 E.01198
G1 X192.349 Y114.808 E.01208
G1 X192.694 Y115.021 E.01202
G1 X192.996 Y115.29 E.01203
G1 X193.25 Y115.604 E.01199
G1 X193.448 Y115.955 E.01198
G1 X193.582 Y116.337 E.01203
G1 X193.652 Y116.736 E.01202
G1 X193.652 Y117.142 E.01204
G1 X193.582 Y117.541 E.01202
G1 X193.448 Y117.922 E.01201
G1 X193.25 Y118.277 E.01205
G1 X192.996 Y118.589 E.01196
G1 X192.694 Y118.857 E.01201
G1 X192.349 Y119.07 E.01202
G1 X191.971 Y119.221 E.01208
G1 X191.576 Y119.305 E.01198
G1 X191.173 Y119.322 E.01198
G1 X190.772 Y119.272 E.012
G1 X190.384 Y119.154 E.01204
G1 X190.024 Y118.971 E.012
G1 X189.697 Y118.73 E.01206
G1 X189.417 Y118.437 E.01203
G1 X189.191 Y118.102 E.01198
G1 X189.026 Y117.733 E.01202
G1 X188.922 Y117.343 E.01197
G1 X188.894 Y116.999 E.01027
G1 X188.542 Y116.74 F7800
G1 E-1.4 F1620
;WIPE_START
G1 F6240
G1 X188.922 Y116.535 E-.11472
G1 X189.026 Y116.145 E-.09939
G1 X189.191 Y115.776 E-.09981
G1 X189.417 Y115.441 E-.09953
G1 X189.697 Y115.148 E-.09996
G1 X189.881 Y115.012 E-.05659
;WIPE_END
G1 E-.03 F1620
G1 Z.7 F7800
G1 X186.986 Y120.515
G1 Z.2
G1 E2 F2400
;TYPE:Perimeter
G1 F1800
G1 X186.986 Y190.952 E2.09137
G1 X186.771 Y190.761 E.00853
G1 X186.318 Y190.483 E.01578
G1 X185.83 Y190.29 E.01559
G1 X185.32 Y190.178 E.01552
G1 X184.793 Y190.156 E.01564
G1 X184.269 Y190.222 E.01568
G1 X183.767 Y190.378 E.01562
G1 X183.299 Y190.612 E.01554
G1 X182.862 Y190.935 E.01614
G1 X182.862 Y188.851 E.06189
G1 X117.136 Y188.851 E1.9515
G1 X117.136 Y190.952 E.06239
G1 X116.921 Y190.761 E.00853
G1 X116.468 Y190.483 E.01578
G1 X115.98 Y190.29 E.01559
G1 X115.47 Y190.178 E.01552
G1 X114.943 Y190.156 E.01564
G1 X114.419 Y190.222 E.01568
G1 X113.917 Y190.378 E.01562
G1 X113.449 Y190.612 E.01554
G1 X113.012 Y190.935 E.01614
G1 X113.012 Y119.001 E2.13583
G1 X111.031 Y119.001 E.05882
G1 X111.293 Y118.679 E.01232
G1 X111.551 Y118.217 E.01572
G1 X111.727 Y117.719 E.01568
G1 X111.814 Y117.2 E.01561
G1 X111.814 Y116.678 E.01552
G1 X111.727 Y116.159 E.01561
G1 X111.551 Y115.66 E.01573
G1 X111.293 Y115.201 E.01561
G1 X110.965 Y114.795 E.01552
G1 X110.57 Y114.444 E.01568
G1 X110.12 Y114.169 E.01567
G1 X109.634 Y113.972 E.01556
G1 X109.116 Y113.862 E.01573
G1 X108.593 Y113.84 E.01552
G1 X108.069 Y113.906 E.01568
G1 X107.567 Y114.062 E.01563
G1 X107.101 Y114.295 E.01548
G1 X106.673 Y114.61 E.01578
G1 X106.309 Y114.992 E.01567
G1 X106.017 Y115.425 E.01549
G1 X105.798 Y115.906 E.0157
G1 X105.666 Y116.416 E.01563
G1 X105.622 Y116.939 E.0156
G1 X105.666 Y117.462 E.01559
G1 X105.798 Y117.972 E.01563
G1 X106.017 Y118.453 E.0157
G1 X106.387 Y119.001 E.01962
G1 X105.394 Y119.001 E.02947
G1 X105.394 Y108.529 E.31092
G1 X194.606 Y108.529 E2.64881
G1 X194.606 Y119.001 E.31092
G1 X193.581 Y119.001 E.03043
G1 X193.843 Y118.679 E.01232
G1 X194.101 Y118.217 E.01572
G1 X194.276 Y117.722 E.01558
G1 X194.366 Y117.204 E.01562
G1 X194.366 Y116.674 E.01571
G1 X194.276 Y116.156 E.01562
G1 X194.101 Y115.66 E.01563
G1 X193.843 Y115.201 E.01561
G1 X193.515 Y114.795 E.01552
G1 X193.121 Y114.445 E.01563
G1 X192.671 Y114.168 E.01569
G1 X192.18 Y113.971 E.01571
G1 X191.666 Y113.862 E.01559
G1 X191.143 Y113.84 E.01555
G1 X190.619 Y113.906 E.01568
G1 X190.117 Y114.062 E.01563
G1 X189.651 Y114.295 E.01548
G1 X189.223 Y114.61 E.01578
G1 X188.859 Y114.992 E.01567
G1 X188.565 Y115.427 E.01558
G1 X188.35 Y115.906 E.01558
G1 X188.216 Y116.412 E.01556
G1 X188.172 Y116.939 E.01569
G1 X188.216 Y117.466 E.01569
G1 X188.35 Y117.972 E.01556
G1 X188.565 Y118.451 E.01558
G1 X188.937 Y119.001 E.01971
G1 X186.986 Y119.001 E.05792
G1 X186.986 Y120.455 E.04318
G1 X187.343 Y120.115 F7800
G1 F1800
G1 X187.343 Y191.899 E2.13136
G1 X186.905 Y191.358 E.02065
G1 X186.557 Y191.049 E.01383
G1 X186.158 Y190.803 E.01392
G1 X185.726 Y190.633 E.0138
G1 X185.274 Y190.533 E.01374
G1 X184.808 Y190.514 E.01383
G1 X184.345 Y190.572 E.01386
G1 X183.901 Y190.71 E.01383
G1 X183.486 Y190.917 E.01375
G1 X183.112 Y191.195 E.01384
G1 X182.789 Y191.532 E.01385
G1 X182.657 Y191.727 E.00702
G1 X182.505 Y191.681 E.0047
G1 X182.505 Y189.208 E.07343
G1 X117.493 Y189.208 E1.9303
G1 X117.493 Y191.899 E.0799
M73 P0 R166
G1 X117.055 Y191.358 E.02065
G1 X116.707 Y191.049 E.01383
G1 X116.308 Y190.803 E.01392
G1 X115.876 Y190.633 E.0138
G1 X115.424 Y190.533 E.01374
G1 X114.958 Y190.514 E.01383
G1 X114.495 Y190.572 E.01386
G1 X114.051 Y190.71 E.01383
G1 X113.636 Y190.917 E.01375
G1 X113.262 Y191.195 E.01384
G1 X112.939 Y191.532 E.01385
G1 X112.807 Y191.727 E.00702
G1 X112.655 Y191.681 E.0047
G1 X112.655 Y119.358 E2.14736
G1 X110.309 Y119.358 E.06966
G1 X110.265 Y119.202 E.00482
G1 X110.356 Y119.146 E.00319
G1 X110.704 Y118.836 E.01382
G1 X110.997 Y118.478 E.01374
G1 X111.225 Y118.069 E.01389
G1 X111.38 Y117.629 E.01386
G1 X111.457 Y117.17 E.01381
G1 X111.457 Y116.708 E.01374
G1 X111.38 Y116.249 E.01381
G1 X111.224 Y115.808 E.01389
G1 X110.997 Y115.402 E.01379
G1 X110.705 Y115.042 E.01375
G1 X110.356 Y114.732 E.01386
G1 X109.958 Y114.489 E.01386
G1 X109.529 Y114.314 E.01376
G1 X109.071 Y114.217 E.0139
G1 X108.608 Y114.198 E.01375
G1 X108.145 Y114.256 E.01386
G1 X107.701 Y114.394 E.01383
G1 X107.288 Y114.601 E.01371
G1 X106.91 Y114.879 E.01393
G1 X106.588 Y115.217 E.01385
G1 X106.329 Y115.6 E.01372
G1 X106.136 Y116.025 E.01389
G1 X106.019 Y116.476 E.01381
G1 X105.98 Y116.939 E.01381
G1 X106.019 Y117.402 E.0138
G1 X106.136 Y117.853 E.01381
G1 X106.329 Y118.278 E.01389
G1 X106.588 Y118.661 E.01372
G1 X106.91 Y118.999 E.01385
G1 X107.197 Y119.21 E.01059
G1 X107.148 Y119.358 E.00461
G1 X105.037 Y119.358 E.06269
G1 X105.037 Y108.172 E.33212
G1 X194.963 Y108.172 E2.67001
G1 X194.963 Y119.358 E.33212
G1 X192.859 Y119.358 E.06248
G1 X192.815 Y119.202 E.00481
G1 X192.907 Y119.145 E.00323
G1 X193.254 Y118.836 E.01379
G1 X193.547 Y118.478 E.01374
G1 X193.775 Y118.069 E.01389
G1 X193.929 Y117.631 E.01379
G1 X194.009 Y117.173 E.01382
G1 X194.009 Y116.705 E.01387
G1 X193.929 Y116.247 E.01382
G1 X193.774 Y115.808 E.01383
G1 X193.547 Y115.402 E.01379
G1 X193.255 Y115.042 E.01375
G1 X192.907 Y114.733 E.01383
G1 X192.51 Y114.488 E.01386
G1 X192.076 Y114.314 E.01389
G1 X191.621 Y114.217 E.01379
G1 X191.158 Y114.198 E.01376
G1 X190.695 Y114.256 E.01386
G1 X190.251 Y114.394 E.01383
G1 X189.838 Y114.601 E.01371
G1 X189.46 Y114.879 E.01393
G1 X189.138 Y115.217 E.01385
G1 X188.878 Y115.601 E.01378
G1 X188.688 Y116.025 E.0138
G1 X188.569 Y116.473 E.01376
G1 X188.53 Y116.939 E.01387
G1 X188.569 Y117.405 E.01387
G1 X188.688 Y117.853 E.01376
G1 X188.878 Y118.277 E.0138
G1 X189.138 Y118.661 E.01378
G1 X189.46 Y118.999 E.01385
G1 X189.747 Y119.21 E.01059
G1 X189.698 Y119.358 E.00461
G1 X187.343 Y119.358 E.06994
G1 X187.343 Y120.055 E.0207
G1 X187.7 Y119.715 F7800
;TYPE:External perimeter
G1 F1800
G1 X187.7 Y197.185 E2.30018
G1 X182.148 Y197.185 E.16485
G1 X182.148 Y189.565 E.22625
G1 X117.85 Y189.565 E1.90909
