; generated by PrusaSlicer 2.4.0+win64 on 2022-03-14 at 16:23:20 UTC

; 

; external perimeters extrusion width = 0.45mm
; perimeters extrusion width = 0.45mm
; infill extrusion width = 0.45mm
; solid infill extrusion width = 0.45mm
; top infill extrusion width = 0.40mm
; first layer extrusion width = 0.40mm

M73 P0 R165
M201 X500 Y500 Z100 E5000 ; sets maximum accelerations, mm/sec^2
M203 X500 Y500 Z10 E60 ; sets maximum feedrates, mm/sec
M204 P500 R1000 T500 ; sets acceleration (P, T) and retract acceleration (R), mm/sec^2
M205 X8.00 Y8.00 Z0.40 E5.00 ; sets the jerk limits, mm/sec
M205 S0 T0 ; sets the minimum extruding and travel feed rate, mm/sec
M107
;TYPE:Custom
G90 ; use absolute coordinates
M83 ; extruder relative mode
M104 S210 ; set extruder temp
M140 S60 ; set bed temp
M190 S60 ; wait for bed temp
M109 S210 ; wait for extruder temp
G28 ; home all
G92 E0.0 ; set position home
G1 Z0.28 F240
G1 X5 F5000 ; move purge line in a little
G1 Y190 E15.0 F1500.0 ; purge up
G1 X7.3 F5000 ; move purge over
G1 Y15 E30 F1200.0 ; purge down
G92 E0.0 ; set home after purge line
G21 ; set units to millimeters
G90 ; use absolute coordinates
M83 ; use relative distances for extrusion
; Filament gcode
M107
;LAYER_CHANGE
;Z:0.2
;HEIGHT:0.2
;BEFORE_LAYER_CHANGE
;0.2


G1 E-2 F1620
G1 Z.5 F7800
;AFTER_LAYER_CHANGE
;0.2
G1 X31.113 Y120.549
G1 Z.2
G1 E2 F2400
;TYPE:Skirt/Brim
;WIDTH:0.4
G1 F1800
G1 X32.758 Y120.124 E.05045
G1 X247.741 Y120.144 E6.38312
G1 X250.87 Y120.39 E.09318
M73 P0 R164
G1 X251.855 Y120.546 E.02962
G1 X254.906 Y121.279 E.09318
G1 X255.855 Y121.587 E.02962
G1 X258.755 Y122.788 E.09318
G1 X259.643 Y123.241 E.02962
G1 X262.319 Y124.881 E.09318
G1 X263.126 Y125.467 E.02962
G1 X265.513 Y127.505 E.09318
G1 X266.218 Y128.211 E.02962
G1 X268.669 Y131.136 E.1133
G1 X269.514 Y132.394 E.04499
G1 X270.718 Y134.498 E.072
G1 X272.136 Y137.868 E.10856
G1 X272.445 Y138.817 E.02962
G1 X273.177 Y141.869 E.09318
G1 X273.333 Y142.854 E.02962
G1 X273.599 Y146.481 E.10799
G1 X273.599 Y158.519 E.35741
G1 X273.333 Y162.146 E.10799
G1 X273.177 Y163.131 E.02962
G1 X272.445 Y166.183 E.09318
G1 X272.136 Y167.132 E.02962
G1 X270.935 Y170.031 E.09318
G1 X270.43 Y171.023 E.03304
G1 X268.833 Y173.612 E.09033
G1 X268.256 Y174.403 E.02906
G1 X266.218 Y176.789 E.09318
G1 X265.513 Y177.495 E.02962
G1 X263.126 Y179.533 E.09318
G1 X262.319 Y180.119 E.02962
G1 X259.643 Y181.759 E.09318
G1 X258.755 Y182.212 E.02962
G1 X255.952 Y183.373 E.09008
G1 X254.906 Y183.721 E.03271
G1 X251.855 Y184.454 E.09318
G1 X250.869 Y184.61 E.02962
G1 X247.242 Y184.876 E.10799
G1 X32.758 Y184.876 E6.36831
G1 X30.547 Y184.479 E.06669
G1 X28.612 Y183.338 E.06669
G1 X27.195 Y181.595 E.06669
G1 X26.401 Y178.519 E.09434
G1 X26.401 Y126.481 E1.54506
G1 X26.798 Y124.27 E.06669
G1 X27.939 Y122.335 E.06669
G1 X29.681 Y120.918 E.06669
G1 X31.055 Y120.564 E.04211
G1 E-1.4 F1620
;WIPE_START
G1 F6240
G1 X32.758 Y120.124 E-.43387
G1 X33.31 Y120.124 E-.13613
;WIPE_END
G1 E-.03 F1620
G1 Z.7 F7800
G1 X131.062 Y170.32
G1 Z.2
G1 E2 F2400
;TYPE:Perimeter
G1 F1800
G1 X131.198 Y170.178 E.00585
G1 X131.623 Y169.864 E.0157
G1 X132.095 Y169.625 E.0157
G1 X132.601 Y169.471 E.0157
G1 X133.092 Y169.408 E.0147
G1 X133.649 Y169.425 E.01653
G1 X134.171 Y169.537 E.01587
G1 X134.662 Y169.734 E.0157
G1 X135.112 Y170.012 E.0157
G1 X135.509 Y170.361 E.0157
G1 X135.841 Y170.773 E.0157
G1 X136.099 Y171.234 E.0157
G1 X136.276 Y171.733 E.0157
G1 X136.365 Y172.254 E.0157
G1 X136.365 Y172.783 E.0157
G1 X136.276 Y173.304 E.0157
G1 X136.099 Y173.803 E.0157
G1 X135.841 Y174.265 E.0157
G1 X135.509 Y174.676 E.0157
G1 X135.112 Y175.026 E.0157
G1 X134.662 Y175.303 E.0157
G1 X134.171 Y175.5 E.0157
G1 X133.654 Y175.612 E.0157
G1 X133.126 Y175.634 E.0157
G1 X132.601 Y175.567 E.0157
G1 X132.095 Y175.412 E.0157
G1 X131.623 Y175.174 E.0157
G1 X131.198 Y174.859 E.0157
G1 X130.832 Y174.478 E.0157
G1 X130.536 Y174.039 E.0157
G1 X130.318 Y173.558 E.0157
G1 X130.185 Y173.046 E.0157
G1 X130.14 Y172.519 E.0157
G1 X130.185 Y171.992 E.0157
G1 X130.318 Y171.48 E.0157
G1 X130.536 Y170.998 E.0157
G1 X130.832 Y170.56 E.0157
G1 X131.02 Y170.364 E.00807
G1 X131.09 Y170.816 F7800
G1 F1800
G1 X131.435 Y170.447 E.015
G1 X131.811 Y170.169 E.0139
G1 X132.229 Y169.958 E.0139
G1 X132.677 Y169.821 E.0139
G1 X133.109 Y169.765 E.01296
G1 X133.605 Y169.781 E.01473
G1 X134.066 Y169.88 E.014
G1 X134.5 Y170.054 E.0139
G1 X134.899 Y170.3 E.0139
G1 X135.25 Y170.609 E.0139
G1 X135.545 Y170.973 E.0139
G1 X135.773 Y171.382 E.0139
G1 X135.929 Y171.823 E.0139
G1 X136.008 Y172.285 E.0139
G1 X136.008 Y172.753 E.0139
G1 X135.929 Y173.214 E.0139
G1 X135.773 Y173.656 E.0139
G1 X135.545 Y174.064 E.0139
G1 X135.25 Y174.428 E.0139
G1 X134.899 Y174.738 E.0139
G1 X134.5 Y174.983 E.0139
G1 X134.066 Y175.158 E.0139
G1 X133.609 Y175.256 E.0139
G1 X133.141 Y175.276 E.0139
G1 X132.677 Y175.217 E.0139
G1 X132.229 Y175.08 E.0139
G1 X131.811 Y174.869 E.0139
G1 X131.435 Y174.59 E.0139
G1 X131.111 Y174.253 E.0139
G1 X130.849 Y173.865 E.0139
G1 X130.656 Y173.438 E.0139
G1 X130.538 Y172.985 E.0139
G1 X130.498 Y172.519 E.0139
G1 X130.538 Y172.052 E.0139
G1 X130.656 Y171.599 E.0139
G1 X130.849 Y171.173 E.0139
G1 X131.056 Y170.866 E.011
G1 X131.162 Y171.348 F7800
;TYPE:External perimeter
G1 F1800
G1 X131.39 Y171.01 E.01209
G1 X131.671 Y170.716 E.01209
G1 X131.999 Y170.474 E.01209
G1 X132.363 Y170.29 E.01209
G1 X132.752 Y170.171 E.01209
G1 X133.127 Y170.123 E.01122
G1 X133.562 Y170.137 E.01292
G1 X133.961 Y170.223 E.01213
G1 X134.339 Y170.374 E.01209
G1 X134.686 Y170.588 E.01209
G1 X134.992 Y170.857 E.01209
G1 X135.248 Y171.174 E.01209
G1 X135.446 Y171.53 E.01209
G1 X135.582 Y171.914 E.01209
G1 X135.651 Y172.315 E.01209
G1 X135.651 Y172.722 E.01209
G1 X135.582 Y173.124 E.01209
G1 X135.446 Y173.508 E.01209
G1 X135.248 Y173.863 E.01209
G1 X134.992 Y174.18 E.01209
G1 X134.686 Y174.45 E.01209
G1 X134.339 Y174.663 E.01209
G1 X133.961 Y174.815 E.01209
G1 X133.563 Y174.901 E.01209
G1 X133.156 Y174.918 E.01209
G1 X132.752 Y174.866 E.01209
G1 X132.363 Y174.747 E.01209
G1 X131.999 Y174.564 E.01209
G1 X131.671 Y174.321 E.01209
G1 X131.39 Y174.027 E.01209
G1 X131.162 Y173.69 E.01209
G1 X130.994 Y173.319 E.01209
G1 X130.891 Y172.925 E.01209
G1 X130.857 Y172.519 E.01209
G1 X130.891 Y172.113 E.01209
G1 X130.994 Y171.719 E.01209
G1 X131.137 Y171.402 E.01031
G1 X130.957 Y171.004 F7800
G1 E-1.4 F1620
;WIPE_START
G1 F6240
G1 X131.39 Y171.01 E-.11507
G1 X131.671 Y170.716 E-.10046
G1 X131.999 Y170.474 E-.10046
G1 X132.363 Y170.29 E-.10046
G1 X132.752 Y170.171 E-.10046
G1 X132.966 Y170.144 E-.0531
;WIPE_END
G1 E-.03 F1620
G1 Z.7 F7800
G1 X160.052 Y135.726
G1 Z.2
G1 E2 F2400
;TYPE:Perimeter
G1 F1800
G1 X160.052 Y166.679 E.91902
G1 X115.213 Y166.679 E1.33132
G1 X108.643 Y158.237 E.3176
G1 X108.643 Y141.893 E.48527
G1 X115.296 Y135.241 E.27934
G1 X131.089 Y135.241 E.4689
G1 X130.835 Y134.982 E.01075
G1 X130.536 Y134.539 E.01587
G1 X130.318 Y134.058 E.0157
G1 X130.185 Y133.546 E.0157
G1 X130.14 Y133.019 E.0157
G1 X130.185 Y132.492 E.0157
G1 X130.318 Y131.98 E.0157
G1 X130.536 Y131.498 E.0157
G1 X130.832 Y131.06 E.0157
G1 X131.198 Y130.678 E.0157
G1 X131.623 Y130.364 E.0157
G1 X132.095 Y130.125 E.0157
G1 X132.601 Y129.971 E.0157
G1 X133.092 Y129.908 E.0147
G1 X133.649 Y129.925 E.01653
G1 X134.171 Y130.037 E.01587
G1 X134.662 Y130.234 E.0157
G1 X135.112 Y130.512 E.0157
G1 X135.509 Y130.861 E.0157
G1 X135.841 Y131.273 E.0157
G1 X136.099 Y131.734 E.0157
G1 X136.276 Y132.233 E.0157
G1 X136.365 Y132.754 E.0157
G1 X136.365 Y133.283 E.0157
G1 X136.276 Y133.804 E.0157
G1 X136.099 Y134.303 E.0157
G1 X135.841 Y134.765 E.0157
G1 X135.457 Y135.241 E.01815
G1 X160.052 Y135.241 E.73024
G1 X160.052 Y135.666 E.01264
G1 X159.695 Y136.041 F7800
G1 F1800
G1 X159.695 Y166.322 E.89909
G1 X115.387 Y166.322 E1.31554
G1 X109.001 Y158.115 E.30878
G1 X109.001 Y142.041 E.47724
G1 X115.444 Y135.598 E.27056
G1 X131.899 Y135.598 E.48857
G1 X131.938 Y135.433 E.00503
G1 X131.811 Y135.369 E.00423
G1 X131.46 Y135.109 E.01296
G1 X131.113 Y134.755 E.01473
G1 X130.849 Y134.365 E.014
G1 X130.656 Y133.938 E.0139
G1 X130.538 Y133.485 E.0139
G1 X130.498 Y133.019 E.0139
G1 X130.538 Y132.552 E.0139
G1 X130.656 Y132.099 E.0139
G1 X130.849 Y131.673 E.0139
G1 X131.111 Y131.285 E.0139
G1 X131.435 Y130.947 E.0139
G1 X131.811 Y130.669 E.0139
G1 X132.229 Y130.458 E.0139
G1 X132.677 Y130.321 E.0139
G1 X133.109 Y130.265 E.01296
G1 X133.605 Y130.281 E.01473
G1 X134.066 Y130.38 E.014
G1 X134.5 Y130.554 E.0139
G1 X134.899 Y130.8 E.0139
G1 X135.25 Y131.109 E.0139
G1 X135.545 Y131.473 E.0139
G1 X135.773 Y131.882 E.0139
G1 X135.929 Y132.323 E.0139
G1 X136.008 Y132.785 E.0139
G1 X136.008 Y133.253 E.0139
G1 X135.929 Y133.714 E.0139
G1 X135.773 Y134.156 E.0139
G1 X135.545 Y134.564 E.0139
G1 X135.25 Y134.928 E.0139
G1 X134.899 Y135.238 E.0139
G1 X134.568 Y135.442 E.01156
G1 X134.612 Y135.598 E.00481
G1 X159.695 Y135.598 E.74475
G1 X159.695 Y135.981 E.01137
G1 E-1.4 F1620
;WIPE_START
G1 F6240
G1 X159.695 Y138.292 E-.57
;WIPE_END
G1 E-.03 F1620
G1 Z.7 F7800
G1 X135.651 Y133.222
G1 Z.2
G1 E2 F2400
;TYPE:External perimeter
G1 F1800
G1 X135.582 Y133.624 E.01209
G1 X135.446 Y134.008 E.01209
G1 X135.248 Y134.364 E.01209
G1 X134.992 Y134.68 E.01209
G1 X134.686 Y134.95 E.01209
G1 X134.339 Y135.163 E.01209
G1 X133.961 Y135.315 E.01209
G1 X133.563 Y135.401 E.01209
G1 X133.156 Y135.418 E.01209
G1 X132.752 Y135.366 E.01209
G1 X132.363 Y135.247 E.01209
G1 X131.999 Y135.064 E.01209
G1 X131.695 Y134.839 E.01122
G1 X131.39 Y134.528 E.01292
G1 X131.162 Y134.19 E.01213
G1 X130.994 Y133.819 E.01209
G1 X130.891 Y133.425 E.01209
G1 X130.857 Y133.019 E.01209
G1 X130.891 Y132.613 E.01209
G1 X130.994 Y132.219 E.01209
G1 X131.162 Y131.848 E.01209
G1 X131.39 Y131.51 E.01209
G1 X131.671 Y131.216 E.01209
G1 X131.999 Y130.974 E.01209
G1 X132.363 Y130.79 E.01209
G1 X132.752 Y130.671 E.01209
G1 X133.127 Y130.623 E.01122
G1 X133.562 Y130.637 E.01292
G1 X133.961 Y130.723 E.01213
G1 X134.339 Y130.874 E.01209
G1 X134.686 Y131.088 E.01209
G1 X134.992 Y131.357 E.01209
G1 X135.248 Y131.674 E.01209
G1 X135.446 Y132.03 E.01209
G1 X135.582 Y132.414 E.01209
G1 X135.651 Y132.815 E.01209
G1 X135.651 Y133.162 E.01031
G1 X135.979 Y133.451 F7800
G1 E-1.4 F1620
;WIPE_START
G1 F6240
G1 X135.582 Y133.624 E-.11507
G1 X135.446 Y134.008 E-.10046
G1 X135.248 Y134.364 E-.10046
G1 X134.992 Y134.68 E-.10046
G1 X134.686 Y134.95 E-.10046
G1 X134.503 Y135.062 E-.0531
;WIPE_END
G1 E-.03 F1620
G1 Z.7 F7800
G1 X115.592 Y135.955
G1 Z.2
G1 E2 F2400
G1 F1800
G1 X159.338 Y135.955 E1.29887
G1 X159.338 Y165.965 E.89104
G1 X115.562 Y165.965 E1.29975
G1 X109.358 Y157.992 E.29995
G1 X109.358 Y142.189 E.46921
G1 X115.549 Y135.997 E.26
G1 X115.629 Y135.556 F7800
G1 E-1.4 F1620
;WIPE_START
G1 F6240
G1 X117.861 Y135.995 E-.57
;WIPE_END
G1 E-.03 F1620
G1 Z.7 F7800
G1 X169 Y142.491
G1 Z.2
G1 E2 F2400
;TYPE:Perimeter
G1 F1800
G1 X175.297 Y136.195 E.26437
G1 X192.395 Y136.195 E.50766
G1 X192.422 Y136.012 E.00548
G1 X192.095 Y135.912 E.01014
G1 X191.653 Y135.689 E.0147
G1 X191.202 Y135.363 E.01653
G1 X190.832 Y134.978 E.01587
G1 X190.536 Y134.539 E.0157
G1 X190.318 Y134.058 E.0157
G1 X190.185 Y133.546 E.0157
G1 X190.14 Y133.019 E.0157
G1 X190.185 Y132.492 E.0157
G1 X190.318 Y131.98 E.0157
G1 X190.536 Y131.498 E.0157
G1 X190.832 Y131.06 E.0157
G1 X191.198 Y130.678 E.0157
G1 X191.623 Y130.364 E.0157
G1 X192.095 Y130.125 E.0157
G1 X192.601 Y129.971 E.0157
G1 X193.092 Y129.908 E.0147
G1 X193.649 Y129.925 E.01653
G1 X194.171 Y130.037 E.01587
G1 X194.662 Y130.234 E.0157
G1 X195.112 Y130.512 E.0157
G1 X195.509 Y130.861 E.0157
G1 X195.841 Y131.273 E.0157
G1 X196.099 Y131.734 E.0157
G1 X196.276 Y132.233 E.0157
G1 X196.365 Y132.754 E.0157
G1 X196.365 Y133.283 E.0157
G1 X196.276 Y133.804 E.0157
G1 X196.099 Y134.303 E.0157
G1 X195.841 Y134.765 E.0157
G1 X195.509 Y135.176 E.0157
G1 X195.112 Y135.526 E.0157
G1 X194.691 Y135.785 E.0147
G1 X194.121 Y136.022 E.01833
G1 X194.155 Y136.195 E.00522
G1 X220.052 Y136.195 E.76892
G1 X220.052 Y167.633 E.93344
G1 X175.213 Y167.633 E1.33132
G1 X168.644 Y159.191 E.3176
G1 X168.644 Y142.847 E.48527
G1 X168.958 Y142.533 E.01319
G1 X169.179 Y142.817 F7800
G1 F1800
G1 X175.444 Y136.552 E.26308
G1 X219.695 Y136.552 E1.31386
G1 X219.695 Y167.276 E.91224
G1 X175.388 Y167.276 E1.31554
G1 X169.001 Y159.069 E.30878
G1 X169.001 Y142.995 E.47724
G1 X169.137 Y142.859 E.0057
G1 X169.358 Y143.143 F7800
;TYPE:External perimeter
G1 F1800
G1 X175.592 Y136.909 E.26178
G1 X219.338 Y136.909 E1.29887
G1 X219.338 Y166.919 E.89104
G1 X175.562 Y166.919 E1.29975
G1 X169.358 Y158.946 E.29995
G1 X169.358 Y143.203 E.46743
G1 X169.129 Y142.815 F7800
G1 E-1.4 F1620
;WIPE_START
G1 F6240
G1 X170.984 Y141.561 E-.57
;WIPE_END
G1 E-.03 F1620
G1 Z.7 F7800
G1 X190.547 Y133.522
G1 Z.2
G1 E2 F2400
;TYPE:Perimeter
G1 F1800
G1 X190.498 Y133.019 E.015
G1 X190.538 Y132.552 E.0139
G1 X190.656 Y132.099 E.0139
G1 X190.849 Y131.673 E.0139
G1 X191.111 Y131.285 E.0139
G1 X191.435 Y130.947 E.0139
G1 X191.811 Y130.669 E.0139
G1 X192.229 Y130.458 E.0139
G1 X192.677 Y130.321 E.0139
G1 X193.109 Y130.265 E.01296
G1 X193.605 Y130.281 E.01473
G1 X194.066 Y130.38 E.014
G1 X194.5 Y130.554 E.0139
G1 X194.899 Y130.8 E.0139
G1 X195.25 Y131.109 E.0139
G1 X195.545 Y131.473 E.0139
G1 X195.773 Y131.882 E.0139
G1 X195.929 Y132.323 E.0139
G1 X196.008 Y132.785 E.0139
G1 X196.008 Y133.253 E.0139
G1 X195.929 Y133.714 E.0139
G1 X195.773 Y134.156 E.0139
G1 X195.545 Y134.564 E.0139
G1 X195.25 Y134.928 E.0139
G1 X194.899 Y135.238 E.0139
G1 X194.527 Y135.466 E.01296
G1 X194.069 Y135.657 E.01473
G1 X193.609 Y135.756 E.014
G1 X193.141 Y135.776 E.0139
G1 X192.677 Y135.717 E.0139
G1 X192.229 Y135.58 E.0139
G1 X191.839 Y135.383 E.01296
G1 X191.437 Y135.093 E.01473
G1 X191.111 Y134.753 E.014
G1 X190.849 Y134.365 E.0139
G1 X190.656 Y133.938 E.0139
G1 X190.563 Y133.58 E.011
G1 X190.994 Y133.819 F7800
;TYPE:External perimeter
G1 F1800
G1 X190.891 Y133.425 E.01209
G1 X190.857 Y133.019 E.01209
G1 X190.891 Y132.613 E.01209
G1 X190.994 Y132.219 E.01209
G1 X191.162 Y131.848 E.01209
G1 X191.39 Y131.51 E.01209
G1 X191.671 Y131.216 E.01209
G1 X191.999 Y130.974 E.01209
G1 X192.363 Y130.79 E.01209
G1 X192.752 Y130.671 E.01209
G1 X193.127 Y130.623 E.01122
G1 X193.562 Y130.637 E.01292
G1 X193.961 Y130.723 E.01213
G1 X194.339 Y130.874 E.01209
G1 X194.686 Y131.088 E.01209
G1 X194.992 Y131.357 E.01209
G1 X195.248 Y131.674 E.01209
G1 X195.446 Y132.03 E.01209
G1 X195.582 Y132.414 E.01209
G1 X195.651 Y132.815 E.01209
G1 X195.651 Y133.222 E.01209
G1 X195.582 Y133.624 E.01209
G1 X195.446 Y134.008 E.01209
G1 X195.248 Y134.363 E.01209
G1 X194.992 Y134.68 E.01209
G1 X194.686 Y134.95 E.01209
G1 X194.364 Y135.148 E.01122
G1 X193.962 Y135.315 E.01292
G1 X193.563 Y135.401 E.01213
G1 X193.156 Y135.418 E.01209
G1 X192.752 Y135.366 E.01209
G1 X192.363 Y135.247 E.01209
G1 X192.025 Y135.077 E.01122
G1 X191.672 Y134.822 E.01292
G1 X191.39 Y134.527 E.01213
G1 X191.162 Y134.19 E.01209
G1 X191.018 Y133.873 E.01031
G1 X190.6 Y133.746 F7800
G1 E-1.4 F1620
;WIPE_START
G1 F6240
G1 X190.891 Y133.425 E-.11507
G1 X190.857 Y133.019 E-.10046
G1 X190.891 Y132.613 E-.10046
G1 X190.994 Y132.219 E-.10046
G1 X191.162 Y131.848 E-.10046
G1 X191.282 Y131.669 E-.0531
;WIPE_END
G1 E-.03 F1620
G1 Z.7 F7800
G1 X193.942 Y169.488
G1 Z.2
G1 E2 F2400
;TYPE:Perimeter
G1 F1800
G1 X194.171 Y169.537 E.00697
G1 X194.662 Y169.734 E.0157
G1 X195.112 Y170.012 E.0157
G1 X195.509 Y170.361 E.0157
G1 X195.841 Y170.773 E.0157
G1 X196.099 Y171.234 E.0157
G1 X196.276 Y171.733 E.0157
G1 X196.365 Y172.254 E.0157
G1 X196.365 Y172.783 E.0157
G1 X196.276 Y173.304 E.0157
G1 X196.099 Y173.803 E.0157
G1 X195.841 Y174.265 E.0157
G1 X195.509 Y174.676 E.0157
G1 X195.112 Y175.026 E.0157
G1 X194.662 Y175.303 E.0157
G1 X194.171 Y175.5 E.0157
G1 X193.654 Y175.612 E.0157
G1 X193.126 Y175.634 E.0157
G1 X192.635 Y175.571 E.0147
G1 X192.1 Y175.415 E.01653
G1 X191.623 Y175.174 E.01587
G1 X191.198 Y174.859 E.0157
G1 X190.832 Y174.478 E.0157
G1 X190.536 Y174.039 E.0157
G1 X190.318 Y173.558 E.0157
G1 X190.185 Y173.046 E.0157
G1 X190.14 Y172.519 E.0157
G1 X190.185 Y171.992 E.0157
