; generated by PrusaSlicer 2.4.0+win64 on 2022-03-19 at 00:38:29 UTC

; 

; external perimeters extrusion width = 0.45mm
; perimeters extrusion width = 0.45mm
; infill extrusion width = 0.45mm
; solid infill extrusion width = 0.45mm
; top infill extrusion width = 0.40mm
; first layer extrusion width = 0.40mm

M73 P0 R197
M201 X500 Y500 Z100 E5000 ; sets maximum accelerations, mm/sec^2
M203 X500 Y500 Z10 E60 ; sets maximum feedrates, mm/sec
M204 P500 R1000 T500 ; sets acceleration (P, T) and retract acceleration (R), mm/sec^2
M205 X8.00 Y8.00 Z0.40 E5.00 ; sets the jerk limits, mm/sec
M205 S0 T0 ; sets the minimum extruding and travel feed rate, mm/sec
M107
;TYPE:Custom
G90 ; use absolute coordinates
M83 ; extruder relative mode
M104 S210 ; set extruder temp
M140 S60 ; set bed temp
M190 S60 ; wait for bed temp
M109 S210 ; wait for extruder temp
G28 ; home all
G92 E0.0 ; set position home
G1 Z0.28 F240
G1 X5 F5000 ; move purge line in a little
G1 Y190 E15.0 F1500.0 ; purge up
G1 X7.3 F5000 ; move purge over
M73 P0 R196
G1 Y15 E30 F1200.0 ; purge down
G92 E0.0 ; set home after purge line
G21 ; set units to millimeters
G90 ; use absolute coordinates
M83 ; use relative distances for extrusion
; Filament gcode
M107
;LAYER_CHANGE
;Z:0.2
;HEIGHT:0.2
;BEFORE_LAYER_CHANGE
;0.2


G1 E-2 F1620
G1 Z.5 F7800
;AFTER_LAYER_CHANGE
;0.2
G1 X29.546 Y120.108
G1 Z.2
G1 E2 F2400
;TYPE:Skirt/Brim
;WIDTH:0.4
G1 F1800
G1 X270.434 Y120.108 E7.15226
G1 X272.645 Y120.505 E.06669
G1 X274.579 Y121.646 E.06669
G1 X275.997 Y123.389 E.06669
G1 X276.791 Y126.463 E.09427
G1 X276.811 Y178.533 E1.54603
G1 X276.415 Y180.744 E.06669
G1 X275.275 Y182.679 E.06669
G1 X273.532 Y184.097 E.06669
G1 X270.454 Y184.892 E.09441
G1 X29.546 Y184.892 E7.15285
G1 X27.335 Y184.495 E.06669
G1 X25.4 Y183.354 E.06669
G1 X23.983 Y181.612 E.06669
G1 X23.189 Y178.535 E.09434
G1 X23.189 Y126.465 E1.54603
G1 X23.586 Y124.254 E.06669
G1 X24.727 Y122.319 E.06669
G1 X26.47 Y120.902 E.06669
G1 X29.488 Y120.123 E.09256
G1 E-1.4 F1620
;WIPE_START
G1 F6240
G1 X31.799 Y120.123 E-.57
;WIPE_END
G1 E-.03 F1620
G1 Z.7 F7800
G1 X237.04 Y151.529
G1 Z.2
G1 E2 F2400
;TYPE:Perimeter
G1 F1800
G1 X237.078 Y151.422 E.00338
G1 X237.295 Y151.034 E.01318
G1 X237.573 Y150.688 E.01318
G1 X237.907 Y150.395 E.01319
G1 X238.285 Y150.162 E.01319
G1 X238.697 Y149.997 E.01318
G1 X239.131 Y149.903 E.01319
G1 X239.543 Y149.886 E.01224
G1 X240.009 Y149.939 E.01393
G1 X240.44 Y150.071 E.01337
G1 X240.836 Y150.271 E.01319
G1 X241.194 Y150.535 E.01319
G1 X241.501 Y150.855 E.01318
G1 X241.749 Y151.223 E.01318
G1 X241.919 Y151.599 E.01224
G1 X242.044 Y152.051 E.01393
G1 X242.082 Y152.5 E.01337
G1 X242.044 Y152.942 E.01319
G1 X241.932 Y153.372 E.01319
G1 X241.749 Y153.777 E.01319
G1 X241.501 Y154.145 E.01319
G1 X241.194 Y154.465 E.01318
G1 X240.836 Y154.729 E.01319
G1 X240.44 Y154.929 E.01319
G1 X240.015 Y155.059 E.01319
G1 X239.575 Y155.116 E.01319
G1 X239.131 Y155.097 E.01319
G1 X238.697 Y155.003 E.01319
G1 X238.285 Y154.838 E.01318
G1 X237.907 Y154.605 E.01319
G1 X237.573 Y154.312 E.01319
G1 X237.295 Y153.966 E.01318
G1 X237.078 Y153.578 E.01318
G1 X236.924 Y153.141 E.01376
G1 X236.848 Y152.55 E.01771
G1 X236.859 Y152.257 E.00871
G1 X236.93 Y151.84 E.01254
G1 X237.02 Y151.585 E.00803
G1 X237.279 Y151.923 F7800
G1 F1800
G1 X237.405 Y151.569 E.01114
G1 X237.591 Y151.235 E.01138
G1 X237.832 Y150.936 E.01138
G1 X238.12 Y150.683 E.01138
G1 X238.446 Y150.482 E.01138
G1 X238.802 Y150.339 E.01138
G1 X239.177 Y150.258 E.01138
G1 X239.53 Y150.243 E.01051
G1 X239.936 Y150.29 E.01213
G1 X240.306 Y150.403 E.01149
G1 X240.649 Y150.576 E.01138
G1 X240.957 Y150.804 E.01138
G1 X241.222 Y151.08 E.01138
G1 X241.437 Y151.398 E.01138
G1 X241.582 Y151.72 E.01051
G1 X241.691 Y152.114 E.01213
G1 X241.724 Y152.5 E.01149
G1 X241.691 Y152.882 E.01138
G1 X241.594 Y153.253 E.01138
G1 X241.437 Y153.602 E.01138
G1 X241.222 Y153.92 E.01138
G1 X240.957 Y154.196 E.01138
G1 X240.649 Y154.424 E.01138
G1 X240.306 Y154.597 E.01138
G1 X239.94 Y154.709 E.01138
G1 X239.56 Y154.758 E.01138
G1 X239.177 Y154.742 E.01138
G1 X238.802 Y154.661 E.01138
G1 X238.446 Y154.518 E.01138
G1 X238.12 Y154.317 E.01138
G1 X237.832 Y154.064 E.01138
G1 X237.591 Y153.765 E.01138
G1 X237.405 Y153.431 E.01138
G1 X237.273 Y153.058 E.01173
G1 X237.205 Y152.534 E.01571
G1 X237.215 Y152.294 E.00713
G1 X237.268 Y151.982 E.00939
G1 X237.57 Y152.331 F7800
;TYPE:External perimeter
G1 F1800
G1 X237.624 Y152.021 E.00934
G1 X237.731 Y151.717 E.00958
G1 X237.888 Y151.435 E.00958
G1 X238.091 Y151.184 E.00958
G1 X238.333 Y150.971 E.00958
G1 X238.608 Y150.802 E.00958
G1 X238.907 Y150.682 E.00958
G1 X239.222 Y150.614 E.00958
G1 X239.518 Y150.601 E.00878
G1 X239.863 Y150.641 E.01032
G1 X240.173 Y150.736 E.00962
G1 X240.461 Y150.881 E.00958
G1 X240.72 Y151.073 E.00958
G1 X240.943 Y151.305 E.00958
G1 X241.124 Y151.573 E.00958
G1 X241.245 Y151.842 E.00878
G1 X241.338 Y152.177 E.01032
G1 X241.365 Y152.5 E.00962
G1 X241.338 Y152.821 E.00958
G1 X241.257 Y153.133 E.00958
G1 X241.124 Y153.427 E.00958
G1 X240.943 Y153.695 E.00958
G1 X240.72 Y153.927 E.00958
G1 X240.461 Y154.119 E.00958
G1 X240.173 Y154.264 E.00958
G1 X239.864 Y154.359 E.00958
G1 X239.544 Y154.4 E.00958
G1 X239.222 Y154.386 E.00958
G1 X238.907 Y154.318 E.00958
G1 X238.608 Y154.198 E.00958
G1 X238.333 Y154.029 E.00958
G1 X238.091 Y153.816 E.00958
G1 X237.888 Y153.565 E.00958
G1 X237.731 Y153.283 E.00958
G1 X237.622 Y152.975 E.0097
G1 X237.563 Y152.518 E.0137
G1 X237.568 Y152.391 E.00377
G1 X237.313 Y152.151 F7800
G1 E-1.4 F1620
;WIPE_START
G1 F6240
G1 X237.624 Y152.021 E-.09224
G1 X237.731 Y151.717 E-.07954
G1 X237.888 Y151.435 E-.07954
G1 X238.091 Y151.184 E-.07954
G1 X238.333 Y150.971 E-.07954
G1 X238.608 Y150.802 E-.07954
G1 X238.907 Y150.682 E-.07954
G1 X238.909 Y150.681 E-.00051
;WIPE_END
G1 E-.03 F1620
G1 Z.7 F7800
G1 X56.697 Y153.231
G1 Z.2
G1 E2 F2400
;TYPE:Perimeter
G1 F1800
G1 X56.616 Y153.539 E.00946
G1 X56.399 Y154.021 E.0157
G1 X56.102 Y154.459 E.0157
G1 X55.736 Y154.841 E.0157
G1 X55.338 Y155.135 E.0147
G1 X54.844 Y155.392 E.01653
G1 X54.333 Y155.548 E.01587
G1 X53.809 Y155.615 E.0157
G1 X53.28 Y155.593 E.0157
G1 X52.763 Y155.482 E.0157
G1 X52.272 Y155.284 E.0157
G1 X51.822 Y155.007 E.0157
G1 X51.425 Y154.658 E.0157
G1 X51.093 Y154.246 E.0157
G1 X50.835 Y153.784 E.0157
G1 X50.659 Y153.286 E.0157
G1 X50.569 Y152.764 E.0157
G1 X50.569 Y152.236 E.0157
G1 X50.659 Y151.714 E.0157
G1 X50.835 Y151.216 E.0157
G1 X51.093 Y150.754 E.0157
G1 X51.425 Y150.342 E.0157
G1 X51.822 Y149.993 E.0157
G1 X52.272 Y149.716 E.0157
G1 X52.763 Y149.518 E.0157
G1 X53.28 Y149.407 E.0157
G1 X53.775 Y149.386 E.0147
G1 X54.328 Y149.45 E.01653
G1 X54.839 Y149.607 E.01587
G1 X55.311 Y149.845 E.0157
G1 X55.736 Y150.159 E.0157
G1 X56.102 Y150.541 E.0157
G1 X56.399 Y150.979 E.0157
G1 X56.616 Y151.461 E.0157
G1 X56.75 Y151.973 E.0157
G1 X56.794 Y152.5 E.0157
G1 X56.75 Y153.027 E.0157
G1 X56.712 Y153.172 E.00446
G1 X56.405 Y152.868 F7800
G1 F1800
G1 X56.396 Y152.966 E.00292
G1 X56.278 Y153.419 E.0139
G1 X56.086 Y153.846 E.0139
G1 X55.824 Y154.234 E.0139
G1 X55.5 Y154.572 E.0139
G1 X55.149 Y154.831 E.01296
G1 X54.709 Y155.06 E.01473
G1 X54.258 Y155.198 E.014
G1 X53.793 Y155.257 E.0139
G1 X53.326 Y155.237 E.0139
G1 X52.868 Y155.139 E.0139
G1 X52.434 Y154.964 E.0139
G1 X52.035 Y154.719 E.0139
G1 X51.684 Y154.41 E.0139
G1 X51.39 Y154.045 E.0139
G1 X51.161 Y153.637 E.0139
G1 X51.006 Y153.195 E.0139
G1 X50.926 Y152.734 E.0139
G1 X50.926 Y152.266 E.0139
G1 X51.006 Y151.805 E.0139
G1 X51.161 Y151.363 E.0139
G1 X51.39 Y150.955 E.0139
G1 X51.684 Y150.59 E.0139
G1 X52.035 Y150.281 E.0139
G1 X52.434 Y150.036 E.0139
G1 X52.868 Y149.861 E.0139
G1 X53.326 Y149.763 E.0139
G1 X53.762 Y149.744 E.01296
G1 X54.255 Y149.801 E.01473
G1 X54.705 Y149.939 E.014
G1 X55.123 Y150.15 E.0139
G1 X55.5 Y150.428 E.0139
G1 X55.824 Y150.766 E.0139
G1 X56.086 Y151.154 E.0139
G1 X56.278 Y151.581 E.0139
G1 X56.396 Y152.034 E.0139
G1 X56.436 Y152.5 E.0139
G1 X56.41 Y152.808 E.00919
G1 X56.078 Y152.5 F7800
;TYPE:External perimeter
G1 F1800
G1 X56.043 Y152.906 E.01209
G1 X55.941 Y153.3 E.01209
G1 X55.773 Y153.671 E.01209
G1 X55.545 Y154.009 E.01209
G1 X55.263 Y154.303 E.01209
G1 X54.959 Y154.527 E.01122
G1 X54.573 Y154.728 E.01292
G1 X54.182 Y154.848 E.01213
G1 X53.778 Y154.899 E.01209
G1 X53.371 Y154.882 E.01209
G1 X52.973 Y154.796 E.01209
G1 X52.595 Y154.644 E.01209
G1 X52.248 Y154.431 E.01209
G1 X51.943 Y154.162 E.01209
G1 X51.687 Y153.845 E.01209
G1 X51.488 Y153.489 E.01209
G1 X51.352 Y153.105 E.01209
G1 X51.283 Y152.704 E.01209
G1 X51.283 Y152.296 E.01209
G1 X51.352 Y151.895 E.01209
G1 X51.488 Y151.511 E.01209
G1 X51.687 Y151.155 E.01209
G1 X51.943 Y150.838 E.01209
G1 X52.248 Y150.569 E.01209
G1 X52.595 Y150.356 E.01209
G1 X52.973 Y150.204 E.01209
G1 X53.371 Y150.118 E.01209
G1 X53.749 Y150.102 E.01122
G1 X54.181 Y150.152 E.01292
G1 X54.572 Y150.272 E.01213
G1 X54.935 Y150.455 E.01209
G1 X55.263 Y150.697 E.01209
G1 X55.545 Y150.991 E.01209
G1 X55.773 Y151.329 E.01209
G1 X55.941 Y151.7 E.01209
G1 X56.043 Y152.094 E.01209
G1 X56.073 Y152.44 E.01031
G1 X56.424 Y152.7 F7800
G1 E-1.4 F1620
;WIPE_START
G1 F6240
G1 X56.043 Y152.906 E-.11507
G1 X55.941 Y153.3 E-.10046
G1 X55.773 Y153.671 E-.10046
G1 X55.545 Y154.009 E-.10046
G1 X55.263 Y154.303 E-.10046
G1 X55.09 Y154.431 E-.0531
;WIPE_END
G1 E-.03 F1620
G1 Z.7 F7800
G1 X31.46 Y127.579
G1 Z.2
G1 E2 F2400
;TYPE:Perimeter
G1 F1800
G1 X260.98 Y127.579 E6.81474
G1 X261.018 Y127.746 E.00509
G1 X259.961 Y128.246 E.03471
G1 X256.979 Y130.362 E.10856
G1 X254.408 Y132.96 E.10853
G1 X252.323 Y135.963 E.10853
G1 X250.788 Y139.28 E.10853
G1 X249.848 Y142.812 E.10853
G1 X249.536 Y146.405 E.10709
G1 X249.536 Y158.539 E.36025
G1 X249.841 Y162.139 E.10729
G1 X250.777 Y165.681 E.10877
G1 X252.311 Y169.008 E.10877
G1 X254.397 Y172.02 E.10877
G1 X256.971 Y174.626 E.10877
G1 X259.958 Y176.748 E.10878
G1 X261.023 Y177.254 E.035
G1 X260.985 Y177.421 E.00509
G1 X30.66 Y177.421 E6.83863
G1 X30.66 Y127.579 E1.47986
M73 P0 R195
G1 X31.4 Y127.579 E.02197
G1 X30.703 Y127.222 F7800
G1 F1800
G1 X262.571 Y127.221 E6.88446
G1 X262.61 Y127.389 E.00511
G1 X260.142 Y128.555 E.08104
G1 X257.211 Y130.635 E.10671
G1 X254.684 Y133.189 E.10669
G1 X252.634 Y136.141 E.10669
G1 X251.125 Y139.402 E.10669
G1 X250.201 Y142.874 E.10669
G1 X249.893 Y146.421 E.10571
G1 X249.893 Y158.523 E.35934
G1 X250.194 Y162.078 E.10592
G1 X251.114 Y165.56 E.10693
G1 X252.622 Y168.83 E.10693
G1 X254.672 Y171.791 E.10693
G1 X257.204 Y174.353 E.10693
G1 X260.139 Y176.439 E.10693
G1 X262.606 Y177.611 E.0811
G1 X262.568 Y177.779 E.0051
G1 X30.303 Y177.778 E6.89623
G1 X30.303 Y127.222 E1.50107
G1 X30.643 Y127.222 E.0101
G1 X29.946 Y126.865 F7800
;TYPE:External perimeter
G1 F1800
G1 X262.438 Y126.865 E6.90298
G1 X263.442 Y126.859 E.02981
G1 X263.953 Y126.835 E.01517
G1 X265.447 Y126.665 E.04466
G1 X266.029 Y126.667 E.01728
G1 X266.054 Y126.852 E.00555
G1 X265.516 Y127.001 E.01658
G1 X264.046 Y127.235 E.04418
G1 X263.519 Y127.354 E.01604
G1 X260.323 Y128.865 E.10497
G1 X257.443 Y130.909 E.10485
G1 X254.959 Y133.418 E.10484
G1 X252.945 Y136.319 E.10484
G1 X251.462 Y139.524 E.10484
G1 X250.554 Y142.936 E.10484
G1 X250.25 Y146.436 E.10433
G1 X250.25 Y158.508 E.35843
G1 X250.548 Y162.017 E.10455
G1 X251.452 Y165.439 E.10508
G1 X252.933 Y168.653 E.10508
G1 X254.948 Y171.562 E.10508
G1 X257.436 Y174.08 E.10508
G1 X260.321 Y176.129 E.10508
G1 X263.525 Y177.645 E.10524
G1 X264.052 Y177.764 E.01604
G1 X265.525 Y177.999 E.04428
G1 X266.069 Y178.15 E.01677
G1 X266.044 Y178.335 E.00555
G1 X265.467 Y178.335 E.01713
G1 X263.972 Y178.166 E.04467
G1 X263.462 Y178.142 E.01517
G1 X262.458 Y178.135 E.02982
G1 X29.946 Y178.135 E6.90356
G1 X29.946 Y126.925 E1.52049
G1 X30.345 Y126.894 F7800
G1 E-1.4 F1620
;WIPE_START
G1 F6240
G1 X32.257 Y126.924 E-.57
;WIPE_END
G1 E-.03 F1620
G1 Z.7 F7800
G1 X266.24 Y126.732
G1 Z.2
G1 E2 F2400
;WIDTH:0.510022
G1 F1800
G1 X266.474 Y126.701 E.00919
;WIDTH:0.380457
G1 X266.972 Y126.635 E.01409
;WIDTH:0.375029
G1 X267.487 Y126.611 E.01424
;WIDTH:0.325335
G1 X268.003 Y126.586 E.01211
;WIDTH:0.275641
G1 X268.518 Y126.562 E.00998
;WIDTH:0.225947
G1 X269.033 Y126.538 E.00785
G1 E-1.4 F1620
;WIPE_START
G1 F6240
G1 X268.518 Y126.562 E-.12721
;WIPE_END
G1 E-.47279 F1620
G1 Z.7 F7800
G1 X266.255 Y178.269
G1 Z.2
G1 E2 F2400
;WIDTH:0.511268
G1 F1800
G1 X266.488 Y178.301 E.00917
;WIDTH:0.383945
G1 X266.984 Y178.367 E.01419
;WIDTH:0.378535
G1 X267.416 Y178.388 E.01206
;WIDTH:0.338079
G1 X267.847 Y178.409 E.0106
;WIDTH:0.297623
G1 X268.279 Y178.43 E.00915
;WIDTH:0.257167
G1 X268.71 Y178.451 E.0077
;WIDTH:0.21671
G1 X269.142 Y178.472 E.00624
G1 E-1.4 F1620
;WIPE_START
G1 F6240
G1 X268.71 Y178.451 E-.10656
;WIPE_END
G1 E-.49344 F1620
G1 Z.7 F7800
G1 X264.111 Y177.978
G1 Z.2
G1 E2 F2400
;TYPE:Gap fill
;WIDTH:0.0942398
G1 F1800
G1 X264.014 Y177.965 E.00042
;WIDTH:0.0943679
G1 X264.013 Y177.965 E.00001
;WIDTH:0.0969361
G1 X263.989 Y177.961 E.00011
;WIDTH:0.0971911
G1 X263.988 Y177.96 E.00001
;WIDTH:0.142909
G1 X263.729 Y177.925 E.00217
;WIDTH:0.188628
G1 X263.47 Y177.89 E.00317
;WIDTH:0.189204
G1 X263.467 Y177.89 E.00004
;WIDTH:0.192691
G1 X263.451 Y177.888 E.0002
;WIDTH:0.197836
G1 X262.753 Y177.77 E.00912
G1 E-1.4 F1620
;WIPE_START
G1 F6240
G1 X263.451 Y177.888 E-.17457
;WIPE_END
G1 E-.42543 F1620
G1 Z.7 F7800
G1 X259.933 Y177.242
G1 Z.2
G1 E2 F2400
;WIDTH:0.209776
G1 F1800
G1 X259.784 Y176.853 E.00579
G1 E-1.4 F1620
;WIPE_START
G1 F6240
G1 X259.933 Y177.242 E-.10285
;WIPE_END
G1 E-.49715 F1620
G1 Z.7 F7800
G1 X264.103 Y127.021
G1 Z.2
G1 E2 F2400
;WIDTH:0.0941108
G1 F1800
G1 X264.009 Y127.034 E.00041
;WIDTH:0.0942349
G1 X264.007 Y127.035 E.00001
;WIDTH:0.0983186
G1 X263.97 Y127.041 E.00017
;WIDTH:0.0985866
G1 X263.968 Y127.041 E.00001
;WIDTH:0.144474
G1 X263.709 Y127.076 E.00221
;WIDTH:0.190363
G1 X263.45 Y127.111 E.0032
;WIDTH:0.190935
G1 X263.447 Y127.111 E.00004
;WIDTH:0.191493
G1 X263.445 Y127.112 E.00003
;WIDTH:0.196963
G1 X262.756 Y127.229 E.00894
G1 E-1.4 F1620
;WIPE_START
G1 F6240
G1 X263.445 Y127.112 E-.17221
;WIPE_END
G1 E-.42779 F1620
G1 Z.7 F7800
G1 X259.927 Y127.758
G1 Z.2
G1 E2 F2400
;WIDTH:0.229372
G1 F1800
G1 X259.777 Y128.146 E.00645
G1 X259.002 Y127.686 F7800
;TYPE:Solid infill
;WIDTH:0.400523
G1 F1800
G1 X259.394 Y128.078 E.01647
G1 X259.324 Y128.258 E.00575
G1 X259.426 Y128.298 E.00325
G1 X259.24 Y128.43 E.00679
G1 X258.657 Y127.847 E.02451
G1 X258.151 Y127.847 E.01504
G1 X258.944 Y128.64 E.03333
G1 X258.648 Y128.849 E.01079
G1 X257.645 Y127.847 E.04216
G1 X257.14 Y127.847 E.01504
G1 X258.352 Y129.059 E.05099
G1 X258.056 Y129.269 E.01079
G1 X256.634 Y127.847 E.05981
G1 X256.128 Y127.847 E.01504
G1 X257.761 Y129.479 E.06864
G1 X257.465 Y129.689 E.01079
G1 X255.623 Y127.847 E.07747
G1 X255.117 Y127.847 E.01504
G1 X257.169 Y129.899 E.0863
G1 X256.873 Y130.109 E.01079
G1 X254.611 Y127.847 E.09512
G1 X254.105 Y127.847 E.01504
G1 X256.611 Y130.353 E.10539
G1 X256.36 Y130.607 E.01063
G1 X253.6 Y127.847 E.11607
G1 X253.094 Y127.847 E.01504
G1 X256.108 Y130.861 E.12676
G1 X255.857 Y131.116 E.01063
G1 X252.588 Y127.847 E.13745
G1 X252.082 Y127.847 E.01504
G1 X255.605 Y131.37 E.14814
G1 X255.354 Y131.624 E.01063
G1 X251.577 Y127.847 E.15883
G1 X251.071 Y127.847 E.01504
G1 X255.102 Y131.878 E.16952
G1 X254.851 Y132.132 E.01063
G1 X250.565 Y127.847 E.1802
G1 X250.06 Y127.847 E.01504
G1 X254.599 Y132.386 E.19089
G1 X254.347 Y132.641 E.01063
G1 X249.554 Y127.847 E.20158
G1 X249.048 Y127.847 E.01504
G1 X254.114 Y132.913 E.21305
G1 X253.907 Y133.212 E.01081
G1 X248.542 Y127.847 E.2256
G1 X248.037 Y127.847 E.01504
G1 X253.7 Y133.51 E.23815
G1 X253.493 Y133.809 E.01081
G1 X247.531 Y127.847 E.25071
G1 X247.025 Y127.847 E.01504
M73 P1 R195
G1 X253.286 Y134.107 E.26326
G1 X253.078 Y134.406 E.01081
G1 X246.519 Y127.847 E.27581
G1 X246.014 Y127.847 E.01504
G1 X252.871 Y134.704 E.28836
G1 X252.664 Y135.003 E.01081
G1 X245.508 Y127.847 E.30091
G1 X245.002 Y127.847 E.01504
G1 X252.457 Y135.301 E.31347
G1 X252.249 Y135.6 E.01081
G1 X244.497 Y127.847 E.32602
G1 X243.991 Y127.847 E.01504
